Camera r&d/Filters/1999.cube
# 3D LUT of size 33x33x33 converted by Filestar.
#   Input:
#     color space: sRGB
#     white point: default (D65)
#     transfer function: default (sRGB)
#   Output:
#     color space: sRGB
#     white point: default (D65)
#     transfer function: default (sRGB)
#   Contrast: +45
#   Blacks: -56
#   Vibrance: -6
#   Saturation: -4
LUT_3D_SIZE 5
.02168799 .03067625 0
.0303826 .0267722 0
.3239238 0 .00141364
.591262 0 0
.845823 0 .01035445
0 .1773216 0
.04062551 .1808624 0
.3483309 .1973081 0
.5900638 .2302699 0
.8502987 .2693551 0
0 .5278268 0
.1292246 .5294902 0
.3923688 .5320378 0
.626148 .5424486 0
.8672965 .5595782 0
0 .8659316 0
.1824593 .8658624 0
.4268752 .8669988 0
.6563129 .8692984 0
.8899649 .8717944 0
.1648982 .9928245 .1444661
.2756209 .9927775 .1483082
.4659342 .9928353 .153322
.6791779 .9929412 .171028
.8968125 .993478 .2101915
0 .03048288 .04438355
.06127964 .00890698 .03148633
.3359949 0 .06381328
.5963088 0 .07790057
.8566692 0 .09038907
0 .1754993 .05445613
.06243479 .1808133 .04779445
.3551699 .1937029 .06382952
.598926 .2083359 .04445927
.8612119 .2213051 .07607722
0 .5275211 .06218549
.1092112 .5287015 .06601463
.3829716 .5313862 .0732181
.6244999 .5404346 .09911556
.8666468 .5582473 .1257041
0 .8653857 .1668598
.1885416 .8651829 .1677969
.4293036 .8660457 .1684143
.6561217 .8687736 .1916709
.8881578 .8712537 .2037862
.1815872 .9924805 .2752974
.2831056 .9923061 .2762954
.4679967 .9923593 .2844566
.6796173 .992842 .2930445
.895916 .994036 .3113408
0 .01319795 .3511142
0 0 .3507163
.3478929 0 .3522359
.5928832 0 .371655
.8579059 0 .3879251
0 .1934916 .3569074
.04987486 .1951033 .3570115
.3632683 .1962719 .3574897
.5990673 .2062168 .3725292
.8647915 .2086263 .3914551
0 .5244128 .3806428
.0955377 .5266614 .3815682
.3830749 .5320361 .3852911
.6243369 .5401344 .3859888
.8701546 .5563181 .3999209
0 .8660686 .4185391
.1821949 .865761 .4198948
.4361584 .8649259 .4241585
.6568164 .8668889 .4329854
.8863328 .8704196 .4412524
.2015786 .9917083 .4719814
.2989413 .9915544 .4730056
.4787906 .9916591 .4745173
.6859989 .9925892 .4754625
.8966087 .9956135 .4904042
0 0 .6140997
.08550274 0 .614234
.3921202 0 .6145821
.6180685 0 .6172806
.859814 0 .6296901
0 .2046252 .6188177
.04782952 .2029204 .6187879
.3803962 .2018805 .6186795
.6223318 .1992816 .6183231
.8646184 .2016152 .631432
0 .5414622 .6225846
.05747311 .5414733 .6239089
.3879375 .5432125 .6271573
.6317146 .5437491 .6309095
.8746324 .5588453 .6394743
0 .8657881 .6524695
.1847559 .8659482 .6537277
.4384908 .8676745 .657857
.6634788 .8685025 .6616966
.8832485 .8706893 .6668524
.2204877 .9915608 .6782271
.3113592 .9918987 .6794735
.48509 .9939361 .6830439
.6867499 .9943456 .6867389
.9072692 .993422 .6950114
0 0 .8753662
.168187 0 .8750118
.4146075 0 .8756053
.6503142 0 .8761318
.8766339 0 .8768297
0 .2151629 .8769304
.09191924 .2155663 .8766513
.3990161 .2139412 .8767551
.6481096 .2126238 .8762323
.877457 .2307093 .8778584
0 .5604792 .8790329
.05583313 .5612722 .8789914
.4068874 .564782 .8786528
.6530404 .5652455 .8771982
.881761 .5651872 .8794197
.04761082 .8683012 .8838656
.2340558 .8684027 .8839375
.4584989 .8685112 .8846296
.6695104 .8704614 .8849602
.8910668 .8753203 .8883882
.1984001 .9921969 .8922383
.2992639 .9923581 .8928882
.4828044 .9930443 .8940837
.6953907 .9937363 .8968132
.9055185 .9969993 .9013517
