Camera r&d/Filters/1999-modified-2.cube
# 3D LUT of size 33x33x33 converted by Filestar.
#   Input:
#     color space: sRGB
#     white point: default (D65)
#     transfer function: default (sRGB)
#   Output:
#     color space: sRGB
#     white point: default (D65)
#     transfer function: default (sRGB)
#   Contrast: +45
#   Blacks: -26
#   Vibrance: -6
#   Saturation: -4
LUT_3D_SIZE 9
.01832723 .02552201 0
.05319087 .02111248 0
.194361 0 0
.3151747 0 .00016268
.419526 0 0
.5319535 0 0
.6439752 0 0
.7594665 0 .02578368
.8740298 .05768435 .06290124
0 .1123931 0
.09375622 .1085152 0
.2030834 .112888 0
.3140948 .115352 0
.4210851 .1232609 0
.5334034 .1277268 0
.6448426 .1353604 0
.760179 .1493965 .02827457
.8747623 .1693882 .06497189
.01143041 .2706631 0
.1047278 .2707944 0
.2117493 .2712824 0
.3151978 .2737203 0
.4229382 .2764163 0
.533713 .2821751 0
.6454359 .2885069 0
.7603301 .2955103 .02643319
.8759288 .3042551 .07372963
.06888573 .4205296 0
.1343955 .4209741 0
.2221566 .4231059 0
.3243998 .4235393 0
.4293106 .4263123 0
.5389258 .4289558 0
.6495047 .4313553 .01500584
.7626475 .4381175 .05468141
.8767688 .4461765 .09974229
.1070469 .5696432 .03764787
.1565451 .5697887 .0380192
.2399386 .5701183 .04105768
.3391815 .570582 .05137222
.4413882 .5710808 .05587635
.5466354 .5735831 .07190504
.65661 .5773946 .08634745
.7670666 .5799955 .1025285
.8753455 .588472 .1370868
.1385549 .7209903 .1190705
.1824265 .7209169 .1196389
.2610861 .7207274 .1207621
.3547389 .7206612 .1248583
.4587044 .7207844 .1317967
.5623865 .7217683 .1384553
.66679 .7254508 .1354758
.772079 .729528 .1424312
.8827557 .7317408 .168403
.2216835 .8702644 .2029887
.2499576 .8702053 .2037762
.3086596 .8700174 .2050774
.3892657 .8702617 .2061406
.478763 .8710603 .2076708
.5768469 .8719058 .2144417
.6785262 .8732039 .2249097
.7826397 .874835 .236665
.8911072 .8763239 .2301766
.3114499 .9902427 .3044394
.3299787 .9901642 .305372
.3721944 .9899996 .3076082
.4344931 .9903048 .3095618
.5154387 .9902709 .3118235
.6046201 .990823 .3151704
.7022893 .9909568 .319743
.8009223 .99153 .321616
.8998854 .9929991 .3367622
.3114499 .9902427 .3044394
.3299787 .9901642 .305372
.3721944 .9899996 .3076082
.4344931 .9903048 .3095618
.5154387 .9902709 .3118235
.6046201 .990823 .3151704
.7022893 .9909568 .319743
.8009223 .99153 .321616
.8998854 .9929991 .3367622
.00199463 .0189228 .05390244
.05431952 .00594421 .05488889
.1968237 0 .06602412
.3130318 0 .07367928
.418915 0 .08181369
.5309276 0 .08644294
.6419766 0 .09927171
.7585713 .00311853 .1153799
.8735427 .06248258 .1330607
0 .1104504 .06100263
.08764821 .1098797 .06412332
.2026868 .1125742 .07488555
.3103393 .121665 .08033437
.418772 .1261781 .08439175
.5315424 .1277132 .08633786
.6435252 .1359729 .09963404
.7592272 .1510543 .1165119
.8741682 .1712402 .1356294
.00677373 .2700121 .07532144
.1026029 .2702028 .08116173
.2109742 .2708259 .09097833
.3131735 .2734748 .09512068
.4216624 .2752023 .08991516
.5317589 .2824058 .08781692
.6445154 .2888064 .09722025
.7593247 .2968655 .1150518
.8751724 .3053704 .1424046
.07561777 .4195167 .08911396
.1384051 .4197971 .0891437
.2282626 .4202737 .09665611
.3250849 .4223051 .1010634
.4270315 .4253767 .09897495
.5370829 .427606 .1041757
.6487137 .431255 .1123622
.7617407 .4382093 .1305078
.8758205 .4470549 .1558658
.1071739 .5695711 .1231716
.156842 .5697046 .1238253
.2402268 .5699107 .1264735
.3394957 .5703387 .1307577
.440076 .5710383 .1325487
.5460229 .5731719 .1367675
.6559666 .5768732 .1462592
.7666887 .5797027 .1581995
.8750219 .5881872 .1832688
.1408822 .7208624 .171145
.1840836 .7207918 .1718068
.2619566 .7206137 .173139
.3554789 .7205319 .1741968
.4587268 .720693 .1786233
.5620014 .7217136 .1824182
.667123 .7250125 .1788285
.7709452 .7294932 .1860378
.8820392 .73193 .2072941
.22293 .8702458 .2369256
.2515855 .870104 .2365068
.3103306 .8699105 .2387227
.3907163 .8701782 .2398544
.4795594 .8709542 .2408257
.577303 .8717709 .246799
.678892 .872861 .2555601
.7826291 .8745144 .2653943
.8905791 .8762254 .261458
.3123541 .9902751 .3278533
.3308244 .9901971 .3287116
.3729882 .9900038 .3308657
.4351971 .990249 .332321
.5152731 .9903762 .3338217
.6054199 .9906939 .3367949
.7024099 .9909369 .3420528
.8013499 .9915118 .3437642
.9000111 .9930717 .3582162
.3123541 .9902751 .3278533
.3308244 .9901971 .3287116
.3729882 .9900038 .3308657
.4351971 .990249 .332321
.5152731 .9903762 .3338217
.6054199 .9906939 .3367949
.7024099 .9909369 .3420528
.8013499 .9915118 .3437642
.9000111 .9930717 .3582162
0 .00025809 .1870735
.07879546 0 .1874678
.2006004 0 .1894842
.3092666 0 .1917527
.4166749 0 .1949185
.5271989 0 .203257
.6392779 0 .2111838
.7573794 .01539843 .2196961
.8723796 .07375316 .2310618
0 .1186048 .181226
.08884373 .1159865 .1832773
.1998701 .1158911 .1857912
.3122435 .1219206 .1943285
.4153353 .1278572 .1990864
.5282941 .1297328 .204388
.6402725 .1432415 .211474
.7583333 .1549285 .220019
.8731125 .1756042 .2321858
.01498526 .2685739 .1893012
.1020883 .2700599 .1897356
.214274 .2716463 .1924082
.3169061 .2756321 .2023556
.4198732 .2776651 .2045333
.5315453 .284278 .2043989
.6431257 .2900653 .211726
.758617 .2970116 .2229389
.8743876 .3075622 .2347195
.08439783 .4176819 .2106611
.1449511 .4178472 .2116532
.2325256 .4183885 .2127091
.3288495 .4195432 .2116735
.4270532 .422906 .2103121
.5370715 .4251917 .2125095
.647676 .4310591 .2188496
.7604032 .4387709 .2280547
.8757035 .4473988 .2426221
.1130101 .5691218 .2280834
.1603104 .5693156 .2289667
.2399663 .5696893 .2302427
.3378257 .5696539 .2313497
.4387477 .5701586 .2345929
.5452177 .5723578 .2346979
.6556178 .575583 .236231
.7660255 .5793099 .24629
.8747593 .5874045 .264029
.1495492 .7203974 .2571428
.1904128 .72034 .2576032
.2652418 .7202209 .2587043
.3565016 .7201507 .2601695
.4576312 .7203205 .2603466
.561062 .7215874 .260819
.6661957 .7245969 .2596776
.7687385 .7294687 .2670711
.8802122 .732439 .2820421
.22752 .8701459 .3021701
.2555913 .8700088 .3031069
.315552 .8695769 .3048704
.394705 .8698187 .3064192
.4824817 .870738 .3079393
.5789312 .8716034 .3136304
.6791156 .8725103 .3187067
.7817577 .8737705 .3242842
.8894109 .8759217 .324853
.3176276 .990168 .3743593
.335515 .9901415 .3748883
.376749 .9900458 .376267
.4378857 .9901894 .3768286
.5171072 .9903402 .3774641
.6071625 .9905971 .3780703
.7034538 .9908419 .3834486
.8018451 .9918557 .3881958
.9000893 .9934693 .401525
.3176276 .990168 .3743593
.335515 .9901415 .3748883
.376749 .9900458 .376267
.4378857 .9901894 .3768286
.5171072 .9903402 .3774641
.6071625 .9905971 .3780703
.7034538 .9908419 .3834486
.8018451 .9918557 .3881958
.9000893 .9934693 .401525
0 0 .3017555
.09558373 0 .3023544
.206807 0 .3034225
.3105125 0 .301597
.418531 0 .3019681
.5270404 0 .3129938
.6372675 .00140659 .3190325
.7565305 .0395383 .3244455
.8718822 .08779874 .3348299
0 .1148365 .3026775
.09141899 .1175615 .3028219
.2022176 .1217303 .3026569
.3133067 .1246709 .302374
.4184235 .1314627 .3031361
.5282069 .1377368 .3135009
.6381272 .1504693 .3198337
.7568764 .1636218 .3272613
.8726025 .1813027 .3366407
.04497034 .2693178 .3038639
.1182796 .2701481 .3040175
.213277 .2718496 .3049202
.3238436 .2745978 .30766
.4244579 .2796754 .3092446
.5309341 .2842812 .3181266
.639498 .2946643 .3242012
.7571607 .3008138 .3311445
.8740736 .3112115 .3400715
.07938527 .4168962 .3194907
.1436458 .4177136 .3197463
.2328396 .4187166 .3215255
.3317839 .4205084 .3225431
.4310586 .4241126 .3244395
.5343266 .4287235 .323962
.6459163 .4343708 .3266293
.7587354 .4433306 .3352584
.8753531 .4502738 .3478085
.1272874 .5681943 .3363308
.1691543 .5684077 .3367398
.2445542 .5689402 .3377714
.3384281 .5689934 .3397131
.4395868 .5693437 .3411053
.5445463 .571059 .3401664
.6546036 .5747045 .3407782
.7651747 .5791853 .347515
.8755993 .5869892 .3603275
.1551635 .7195669 .355312
.19368 .7196344 .3556693
.2660903 .7197776 .3566167
.3574468 .7196101 .3577906
.4581907 .7199679 .3578944
.5608675 .7211168 .3590417
.6654741 .7236761 .3565745
.7705687 .7271574 .3631242
.8799959 .7318788 .373571
.2390943 .8698656 .387988
.2654369 .8698304 .3888133
.3221129 .8696655 .3909413
.4021434 .8692003 .3931569
.4875944 .8702965 .3943791
.5808686 .8712999 .396779
.680001 .8717017 .4005689
.7811247 .8728305 .4054481
.8899282 .8754652 .4093835
.3251938 .9899886 .4406799
.3432309 .9899665 .4409286
.3843744 .9899668 .4415401
.4445558 .9901099 .4420689
.5217011 .9904264 .4423948
.6110625 .9905022 .4420184
.7058413 .9911372 .4442373
.8035387 .9929208 .4506669
.8995738 .9943183 .461351
.3251938 .9899886 .4406799
.3432309 .9899665 .4409286
.3843744 .9899668 .4415401
.4445558 .9901099 .4420689
.5217011 .9904264 .4423948
.6110625 .9905022 .4420184
.7058413 .9911372 .4442373
.8035387 .9929208 .4506669
.8995738 .9943183 .461351
0 0 .412913
.09304296 0 .4126235
.2065292 0 .4123957
.3169184 0 .4130552
.4224606 0 .4135876
.5273736 0 .4161062
.6358078 .02466828 .4267011
.7560248 .05477292 .433203
.8720847 .09552961 .4394563
0 .1241266 .4130194
.07490904 .1270206 .4129756
.2033774 .1286167 .4138041
.3159867 .1301272 .4142191
.420155 .1360848 .4144652
.5263153 .14748 .4165165
.636583 .1593976 .4272555
.7561205 .1694066 .4346354
.8729475 .1870527 .4410492
.00521025 .2776352 .4179924
.1024211 .2784701 .4178637
.2097924 .2806057 .4174264
.316739 .2826997 .4167255
.4260585 .2821758 .4179888
.5318355 .2868619 .4200513
.6392919 .2978517 .4299299
.7573243 .3042924 .4376234
.8752068 .3148854 .4466053
.06655721 .4204346 .4237846
.1340762 .4210489 .4241047
.2259421 .4221927 .424631
.3306514 .4247929 .4250876
.4363778 .4290756 .4276516
.5374376 .4302794 .4303727
.6440507 .4368527 .4354724
.7585975 .4453667 .443952
.8746359 .4535133 .451978
.1277131 .5676145 .4359772
.1742787 .567819 .4364268
.2526096 .5686256 .4377508
.3451166 .5704272 .4401421
.4410529 .5718023 .442422
.5454895 .5728692 .4422673
.6557526 .5753506 .445426
.7641321 .5817387 .4505572
.874405 .5912562 .4603831
.1700933 .7197232 .4517845
.2060221 .7199125 .4520361
.2743535 .7203054 .4527645
.3598548 .7202984 .4536589
.4594097 .7210847 .4561049
.559293 .7221611 .4598089
.6632316 .7243917 .4616042
.7709062 .7268967 .4650607
.8799536 .7317217 .471166
.2491191 .870488 .4800557
.2749656 .8703864 .4806305
.3294255 .870325 .4819942
.4060309 .8703299 .483662
.4897603 .8706179 .4844612
.5828816 .8709059 .4848256
.6822769 .8714604 .4876866
.7825667 .8729413 .491255
.8901218 .8749266 .4963079
.3339749 .9900518 .5209705
.3512514 .9900319 .5214251
.3917132 .9900293 .5225073
.4515995 .9901363 .5234259
.5273219 .9904091 .5231235
.6143787 .9907179 .5230476
.7086622 .9909443 .5240995
.8068602 .9923167 .5287718
.9015519 .9945692 .5352424
.3339749 .9900518 .5209705
.3512514 .9900319 .5214251
.3917132 .9900293 .5225073
.4515995 .9901363 .5234259
.5273219 .9904091 .5231235
.6143787 .9907179 .5230476
.7086622 .9909443 .5240995
.8068602 .9923167 .5287718
.9015519 .9945692 .5352424
.00532971 0 .5314624
.1030713 0 .5312328
.20672 0 .5303836
.3177208 0 .5299357
.4261739 0 .5303138
.5352559 0 .5297272
.6441129 .01335675 .5315502
.7549896 .04506364 .539006
.8717199 .09928846 .5497565
0 .1309007 .5308913
.09667759 .1317054 .5307727
.2113834 .1332043 .5305374
.3194616 .1377402 .5302745
.4263488 .1442082 .529893
.5317198 .1512914 .5297245
.6431409 .1571553 .5316457
.7560166 .1649917 .540307
.8723629 .1912188 .5510989
.04509912 .285355 .5316367
.1220284 .2855621 .5316247
.219401 .2868562 .5313919
.323074 .2887079 .5302836
.4279425 .291384 .5292486
.5318183 .2938181 .530176
.6432774 .2964005 .5336156
.7576694 .3028766 .5445557
.8736427 .315914 .5522459
.07601582 .4279304 .5339512
.1360923 .4282573 .5338271
.2274783 .428576 .533901
.3313025 .4296225 .534233
.4355829 .4315746 .5343245
.5388173 .4336781 .5352344
.6471596 .4358903 .5391337
.7620744 .4430618 .546877
.8767393 .4534575 .5536255
.1147632 .5686906 .5365039
.1622179 .568873 .5369202
.2434126 .5693176 .5379175
.3396823 .5702911 .5393631
.4438902 .5735052 .5423186
.5520307 .5770918 .5465956
.6572424 .578371 .5477439
.7648378 .5839536 .5531308
.8757574 .5938457 .5620233
.1668718 .7191461 .5531268
.2047243 .7192516 .5532734
.2775354 .7194989 .5536318
.3655833 .7204108 .5549253
.4612966 .7227954 .5566294
.5601958 .7237746 .5582919
.6672093 .724257 .5593844
.7747681 .7268264 .5643271
.8808786 .7305602 .5720816
.2479113 .8713483 .5797982
.2743631 .8714293 .5800489
.329716 .8715859 .5806254
.4037786 .8719955 .5817664
.4917467 .8720296 .5816526
.5849966 .8719364 .5821415
.6847162 .8722239 .5832073
.7861569 .8732159 .5844678
.8880178 .8754963 .5882738
.3361473 .990989 .6066326
.3535345 .9910898 .6068202
.3929179 .9914333 .607376
.4528987 .9916435 .6085569
.5280385 .9916784 .6092529
.6159386 .9919215 .6105247
.7084404 .9920955 .6142163
.8075709 .9922246 .6184842
.9077767 .9928653 .6241457
.3361473 .990989 .6066326
.3535345 .9910898 .6068202
.3929179 .9914333 .607376
.4528987 .9916435 .6085569
.5280385 .9916784 .6092529
.6159386 .9919215 .6105247
.7084404 .9920955 .6142163
.8075709 .9922246 .6184842
.9077767 .9928653 .6241457
.03267732 0 .646742
.1172839 0 .6466733
.2140469 0 .6468319
.3206732 0 .6464859
.4309136 0 .6461977
.5419615 .00198333 .6462502
.6505504 .02634274 .6465064
.7607706 .06973412 .6503354
.8709869 .09452073 .6548738
.04703948 .1434545 .6467013
.1210403 .1447911 .6466911
.2158436 .1477938 .6467487
.3211084 .1516251 .6467804
.4309963 .1561871 .6463391
.541831 .1582072 .6460176
.649281 .1651752 .6466305
.7601681 .1772127 .6504552
.8710687 .1886966 .6547865
.09723841 .2933828 .6467926
.1488338 .2938169 .6468187
.231914 .2948025 .6467493
.3292364 .2961128 .6463835
.4331879 .2982408 .6459744
.5428886 .2982208 .6462122
.6503275 .3011938 .6473402
.7606086 .3087331 .6509655
.8725463 .316704 .6563771
.1139895 .4370593 .6478237
.1643586 .4370691 .6477853
.2472002 .4376433 .6475916
.3422684 .4378611 .6479802
.4391025 .4393679 .6479442
.5418415 .4405371 .6492686
.6522043 .4414564 .6512338
.762587 .4435366 .6530628
.8743684 .4550553 .6602866
.1252413 .5776193 .6509525
.1712578 .5777432 .6512827
.2513428 .5780613 .6521242
.3476024 .5786691 .6535652
.4527053 .580012 .6547497
.5524386 .5810507 .6562825
.6582265 .5810392 .6551639
.7692784 .5840236 .6572793
.877428 .5940711 .6651444
.1862814 .7193778 .6571741
.2209643 .7194793 .6573107
.2826537 .7198397 .6575334
.3666069 .7201256 .6580191
.4612276 .720439 .6594025
.5671707 .7236646 .6614
.6707562 .7255039 .6639795
.7766696 .7275501 .6683303
.8832023 .7338245 .6760831
.2481553 .8699333 .6760743
.2743985 .8700225 .6764343
.3293597 .8704122 .6774511
.4052138 .8710075 .6791914
.4942793 .872247 .6816533
.5888783 .8731148 .6839304
.688634 .872776 .6838926
.7870913 .8731161 .6847422
.8862973 .8757288 .6881268
.3309994 .9913687 .7005518
.3487149 .991486 .7007524
.3896698 .9917631 .7012624
.450291 .9925978 .7030121
.5251868 .9937726 .7046837
.6116315 .994167 .7061602
.7052766 .9938619 .7086146
.8082159 .9927815 .7124833
.9097244 .9931657 .7147934
.3309994 .9913687 .7005518
.3487149 .991486 .7007524
.3896698 .9917631 .7012624
.450291 .9925978 .7030121
.5251868 .9937726 .7046837
.6116315 .994167 .7061602
.7052766 .9938619 .7086146
.8082159 .9927815 .7124833
.9097244 .9931657 .7147934
.06446476 0 .7646216
.1323507 0 .7645748
.2260415 0 .7645555
.3331637 .00516707 .764083
.4412249 .0215883 .7637509
.5489842 .03363796 .7637849
.6575715 .0535315 .7635179
.7680517 .06819913 .7640404
.876861 .1016442 .7664573
.0701847 .1466567 .7646061
.135817 .1476988 .7645786
.2298987 .150558 .7645051
.3341945 .1552292 .7642486
.4436075 .1609423 .7637919
.5504319 .1677599 .7636942
.6580827 .1746242 .7634524
.7672791 .180687 .7643493
.8771602 .1928565 .766683
.100521 .2985194 .7638429
.1550299 .2986568 .7638558
.2430863 .2988543 .7638978
.343152 .3006402 .76381
.4482551 .3053144 .7631855
.5526046 .3077603 .763233
.6600673 .3089229 .7639739
.766086 .3119388 .7638844
.8776301 .318177 .7671728
.1371065 .4444696 .7642764
.1806307 .444442 .7644371
.2582016 .4447488 .7647955
.35086 .4450791 .7651107
.4537746 .4448424 .7651139
.5571933 .4465815 .7652707
.6594856 .4473487 .7657857
.7661076 .4496394 .7655713
.8782481 .4554756 .7684827
.1463079 .5850987 .7670804
.1862647 .5851736 .7671543
.2600406 .5853643 .7673414
.3535976 .5858445 .7672354
.4595535 .5873232 .7671813
.5612966 .5889508 .7675478
.6648317 .5875403 .768313
.7695383 .5894689 .7688185
.87905 .5931576 .770795
.2013676 .7239086 .769392
.2320148 .7238708 .7694168
.2965988 .7239864 .769217
.3827365 .724286 .769083
.4780616 .7245564 .7693306
.5705786 .7266211 .7714955
.6711549 .7293336 .7730525
.778174 .7307541 .7738234
.8853247 .7343171 .7787944
.2410401 .8697358 .778287
.2667273 .8699042 .7785122
.3236097 .8701217 .779177
.4029562 .8701297 .7803066
.494817 .8698118 .7811843
.5937467 .871508 .7824553
.6918129 .8732489 .7844958
.787437 .8752855 .7862483
.8881007 .877041 .7881542
.3212009 .9903525 .7951989
.3395671 .9905441 .7953735
.381768 .9910728 .7957717
.4445273 .9919927 .7965072
.5215075 .9932846 .7983068
.6137465 .9941002 .8004254
.7111089 .9949263 .8036567
.8110719 .9937025 .8067888
.9085253 .9939603 .8105454
.3212009 .9903525 .7951989
.3395671 .9905441 .7953735
.381768 .9910728 .7957717
.4445273 .9919927 .7965072
.5215075 .9932846 .7983068
.6137465 .9941002 .8004254
.7111089 .9949263 .8036567
.8110719 .9937025 .8067888
.9085253 .9939603 .8105454
.1001171 .05025002 .8820485
.1550822 .05248866 .8819762
.2427496 .05938794 .8818901
.3432831 .07041905 .8817798
.4492173 .07619251 .8816247
.5622348 .07698997 .8806354
.6683278 .09625486 .8806771
.7747023 .1167873 .8803428
.8832898 .1356936 .8817238
.1063824 .1708901 .8818741
.1595977 .1715901 .8818408
.2467 .173591 .8817571
.3462991 .1774323 .8817039
.4509293 .1816406 .881418
.5631321 .1841232 .880588
.6686717 .1917583 .8803972
.7760352 .2061614 .8803008
.8824801 .217198 .8817403
.1326042 .3120847 .8820361
.1779993 .3122875 .8820266
.2581476 .3127885 .8820027
.354354 .3141444 .8816599
.4559546 .3166905 .8814356
.5637035 .3197853 .8804923
.6703197 .3234636 .8800024
.7788048 .3286272 .8799974
.8827557 .3356965 .8814874
.1524963 .4564984 .8821263
.1926009 .4566157 .8822362
.2672657 .4567849 .8824022
.3615915 .4565047 .8826423
.4627178 .4576195 .8821003
.5653594 .4615349 .8810239
.6711377 .4631655 .880231
.7779177 .4624362 .8807192
.8835301 .4651315 .8818402
.1702761 .5976362 .882306
.206948 .5978348 .8822879
.2800066 .5985788 .8821524
.3711466 .5993764 .8819563
.4716125 .6005765 .881361
.5735474 .6012462 .8807827
.676783 .5994324 .8810748
.7816783 .5987366 .8817095
.8845962 .60014 .8829597
.2341119 .7349725 .8826783
.2605689 .7350099 .8826844
.3162207 .7351753 .8826466
.3947193 .7354032 .8825591
.48509 .7361707 .8826812
.5769523 .736347 .883505
.6803523 .7387772 .8846334
.7860423 .7386377 .8862548
.889479 .738882 .8873079
.2786301 .8735856 .8878061
.3011985 .8735755 .8879006
.3510759 .8735856 .8881189
.4232876 .8736187 .8884979
.5110556 .8732452 .8887546
.5989618 .8746201 .8888797
.6891078 .8760588 .8892266
.7881397 .8791448 .8902738
.8955841 .8807383 .8928992
.3156646 .99133 .8969671
.3348831 .9914042 .8971089
.3786354 .9915931 .8974696
.4440965 .9919304 .8980691
.5245422 .9924011 .8985696
.6153689 .9929469 .8997198
.7134472 .9936538 .9017165
.8122247 .9949648 .903529
.9090364 .9972472 .9056222
.3156646 .99133 .8969671
.3348831 .9914042 .8971089
.3786354 .9915931 .8974696
.4440965 .9919304 .8980691
.5245422 .9924011 .8985696
.6153689 .9929469 .8997198
.7134472 .9936538 .9017165
.8122247 .9949648 .903529
.9090364 .9972472 .9056222
