Camera r&d/Filters/1999-modified.cube
# 3D LUT of size 33x33x33 converted by Filestar.
#   Input:
#     color space: sRGB
#     white point: default (D65)
#     transfer function: default (sRGB)
#   Output:
#     color space: sRGB
#     white point: default (D65)
#     transfer function: default (sRGB)
#   Contrast: +45
#   Vibrance: -6
#   Saturation: -4
LUT_3D_SIZE 9
.01493425 .02636689 0
.1131842 .00895716 0
.2247227 0 .00803324
.3305365 0 .02110601
.4339997 .02028093 .03086671
.5447395 .02763791 .04896802
.6539872 .05658451 .07281787
.7663606 .08622884 .09863832
.8773243 .1211684 .1211106
.03592785 .1472915 .00430549
.1234245 .1474919 .01059271
.2248942 .1511731 .0232634
.3285663 .1543196 .03433174
.4339971 .1607416 .04207939
.5441536 .166699 .04521734
.6544992 .17058 .07813885
.7667252 .182224 .102688
.8776996 .2011112 .126175
.06767076 .2928897 .03338569
.1354295 .293128 .03967126
.2298681 .2938907 .04774616
.3284444 .2960997 .05181295
.4357636 .2980956 .04989643
.5437719 .3023189 .05696245
.6551048 .3077206 .07861026
.7661947 .3138516 .1057439
.8782672 .3226461 .1376382
.1071147 .4362932 .06242615
.1594189 .4366125 .06260429
.2444565 .4373234 .06331163
.339251 .4384891 .07853929
.4411074 .4405757 .08159513
.5487529 .4421712 .08839964
.6579101 .4446952 .09970569
.7674611 .4509274 .1226752
.8780342 .4593014 .1546952
.1433169 .5809394 .1216771
.1836581 .5810775 .1222139
.2597612 .5810701 .1238807
.3527703 .5816408 .1268736
.4499652 .5823554 .1278064
.5562032 .5839269 .132578
.6634225 .5866525 .1409525
.7711315 .5886815 .152913
.8771859 .595816 .1828046
.1792385 .727012 .1720288
.2145892 .7269453 .1721545
.2836626 .7267755 .1724748
.3715157 .7267556 .1741932
.4705635 .7267884 .1789489
.5689815 .7278786 .1826702
.6706958 .7311617 .1789286
.7739585 .734768 .186667
.8838204 .7368413 .207573
.2530802 .87221 .2447145
.2773526 .8721556 .2454974
.3309553 .8720537 .2467814
.405229 .8724825 .2471698
.4895901 .8733739 .2479881
.5842105 .8741171 .2543895
.6825998 .8750994 .2623582
.7852322 .8767048 .269908
.8917989 .8783928 .2647136
.3358671 .9903024 .3371413
.3526106 .9902286 .3379098
.3910541 .9902052 .3392706
.4492487 .9904308 .3395038
.5270645 .9903997 .3394323
.6131175 .9908571 .3429969
.7076857 .9910851 .3483931
.8044122 .9917402 .3508241
.9011246 .9934207 .3636531
.3358671 .9903024 .3371413
.3526106 .9902286 .3379098
.3910541 .9902052 .3392706
.4492487 .9904308 .3395038
.5270645 .9903997 .3394323
.6131175 .9908571 .3429969
.7076857 .9910851 .3483931
.8044122 .9917402 .3508241
.9011246 .9934207 .3636531
.00552 .01300377 .0925676
.1089777 .00612906 .09762927
.2220306 0 .1050508
.3257023 .00999545 .1120616
.4311516 .02041565 .1241196
.5422841 .03762411 .1280418
.6525885 .06491242 .1408727
.7652198 .09274348 .1561247
.8763301 .1266181 .173583
.03551527 .1489394 .1014572
.1225233 .1490074 .1036844
.2228157 .152979 .1102096
.3251071 .1586154 .1169298
.4317207 .1638409 .1233585
.5421757 .166477 .1321512
.6531311 .173739 .1439046
.7656572 .185301 .1587867
.8767186 .2043584 .1765746
.06279616 .2925109 .1177496
.1328443 .2927495 .1204147
.2292838 .2934957 .1257468
.3297522 .2945822 .1296231
.4339012 .2973974 .1298917
.542516 .3038809 .1323319
.6539811 .3085656 .1448878
.7651936 .315319 .1627917
.8774301 .3244082 .1823724
.1102768 .4356024 .1364272
.1614308 .4356205 .138845
.2465064 .4359106 .1423513
.3415154 .436991 .1416276
.4391705 .4396659 .1449329
.5476969 .4415778 .1492793
.6568415 .4449999 .1575458
.7666109 .4513103 .1728266
.8776574 .4596049 .194745
.1453523 .5807618 .1734964
.1853883 .5809 .1738159
.2602568 .5809842 .1749933
.3523412 .5813351 .1759109
.4495133 .5820508 .1768224
.5558037 .5834343 .1802894
.6630085 .586169 .1847417
.7705331 .5886307 .1958113
.8766894 .5958701 .2199453
.1811416 .7268879 .2114704
.2160412 .7268253 .2118692
.2846468 .7266591 .2123843
.372353 .7266676 .212997
.470607 .7266859 .2152342
.5684888 .7277955 .2176143
.6703719 .7309701 .215633
.7728893 .7347784 .2227637
.8830262 .7370828 .2409014
.2546145 .8722532 .2734369
.2804407 .8720476 .273726
.3330976 .8719511 .2752294
.4070535 .8724054 .2758325
.4908023 .8733284 .2766157
.5848916 .8740413 .2825769
.6827255 .8749316 .2893831
.7850366 .8763797 .2948504
.8911702 .8782962 .2921357
.3383384 .9902871 .3563514
.3548019 .9902291 .3568608
.392729 .9902193 .3577218
.4502503 .9904369 .3579313
.5268894 .9905609 .3580918
.6138713 .9908167 .360007
.7083308 .9910335 .3653041
.804634 .9918664 .3696299
.901193 .9935477 .3825297
.3383384 .9902871 .3563514
.3548019 .9902291 .3568608
.392729 .9902193 .3577218
.4502503 .9904369 .3579313
.5268894 .9905609 .3580918
.6138713 .9908167 .360007
.7083308 .9910335 .3653041
.804634 .9918664 .3696299
.901193 .9935477 .3825297
.03829569 .00199666 .210708
.1252751 0 .2113247
.2267192 0 .2123734
.3274512 .0130932 .2147051
.4280143 .04648457 .2202558
.5386276 .05766786 .2285656
.6502008 .08230608 .2351541
.7642488 .1047009 .2442042
.8753254 .1352171 .2559446
.06419487 .1477592 .2047484
.1294591 .1494366 .2082508
.2229117 .1543832 .2116005
.328554 .1600423 .2192029
.4282343 .1668885 .2252123
.5397274 .171894 .2304752
.6506541 .181665 .237325
.764496 .1918886 .2461817
.8757135 .2096494 .2574474
.07502545 .2919759 .2157584
.1397568 .2925971 .2169885
.2354663 .2938472 .2199242
.3337195 .2973113 .2262807
.4323799 .3005957 .229865
.5416713 .3065414 .2317066
.6526085 .3109972 .2403643
.764115 .3176451 .2510654
.8766255 .3282309 .2627807
.1232674 .4338725 .2383632
.1713001 .4340705 .2391733
.2497199 .4346291 .239801
.3431987 .435388 .2396247
.4403102 .4384434 .2375325
.5473922 .4404982 .2394736
.6558031 .4456186 .2458229
.7654662 .452257 .2556287
.8772681 .460538 .2715206
.1531991 .5800804 .2577583
.190193 .5801989 .258131
.260364 .5804471 .2587398
.3521353 .5804644 .259101
.4496677 .5808675 .2619988
.5549969 .5825794 .2623321
.6620351 .5854321 .2631285
.7698644 .5886528 .2728906
.8762069 .5959872 .2901317
.1894174 .7263624 .2843299
.2227718 .7263098 .2846641
.289194 .7261758 .285513
.3735919 .7262601 .2862776
.4711779 .726341 .2864789
.5682203 .7274674 .2874797
.6695463 .7304826 .2868089
.7724086 .7341034 .2926998
.882189 .737044 .3060454
.2629448 .8720412 .3313054
.2867546 .8719173 .3320975
.3399388 .8715054 .3334939
.4124163 .8718377 .3340675
.494416 .8728989 .3354585
.58642 .8736941 .3402777
.6830826 .8745388 .3459756
.7844338 .8755617 .3493078
.8901711 .878033 .3490819
.3441249 .9901366 .3964463
.3603319 .9901049 .3968931
.3977727 .9900563 .397848
.4544998 .9902486 .3980092
.530273 .9903927 .3983932
.6162961 .9905841 .3988402
.7097776 .9910583 .4035218
.8049846 .9923503 .4089699
.9009829 .9940721 .4206299
.3441249 .9901366 .3964463
.3603319 .9901049 .3968931
.3977727 .9900563 .397848
.4544998 .9902486 .3980092
.530273 .9903927 .3983932
.6162961 .9905841 .3988402
.7097776 .9910583 .4035218
.8049846 .9923503 .4089699
.9009829 .9940721 .4206299
.0563859 0 .3214224
.1296264 0 .3214071
.2243446 .01205536 .3208162
.3291193 .03334356 .3210282
.4309475 .05516154 .3201785
.5380499 .07553553 .3304753
.6482068 .09842481 .3363406
.7625404 .1221255 .342582
.8747537 .148652 .353222
.05524042 .1533693 .3214976
.126697 .1565198 .3214461
.2263478 .1603926 .3214322
.3296847 .1647516 .320688
.4323653 .1713645 .3210897
.5392931 .1795984 .330923
.648397 .1901566 .3380215
.7625414 .2027429 .3453701
.8750297 .2192384 .3552305
.09032144 .2925864 .3231919
.145587 .293166 .323518
.2366607 .2943929 .3245674
.338815 .2976592 .3263414
.4367689 .3021514 .3284707
.5417242 .3071684 .3355228
.6489114 .3163569 .3423913
.7620485 .3234596 .3494947
.8757541 .3333367 .3596656
.1270244 .4332907 .3390369
.1735637 .4339373 .339533
.2534117 .4353113 .3400674
.3464858 .4371756 .3402568
.4426202 .4405486 .3419046
.5449302 .4439688 .3439075
.653268 .4496443 .3466385
.7631805 .4575653 .3560645
.8761975 .4645615 .367927
.1648378 .5795641 .3542349
.1995767 .5797707 .3546264
.2667425 .5802109 .355483
.3547864 .5797144 .3578224
.4523495 .5798351 .3606005
.5539611 .5811419 .3599681
.6616358 .5843676 .3605132
.7683387 .5887994 .3666646
.876324 .596313 .3794219
.1993582 .7251347 .3733171
.2303499 .7250876 .3737795
.2939264 .7250971 .3750458
.3762921 .7249767 .3761975
.4730237 .7253103 .3780349
.5688187 .7264611 .3799088
.6701019 .7290884 .3780862
.7740318 .7319441 .3825551
.8817281 .7364169 .3930461
.2763372 .8714605 .4087516
.2989623 .8714119 .4094741
.3491492 .8712725 .4111989
.4206739 .8711622 .4128076
.5003831 .8720337 .4146853
.5892069 .8728014 .4180208
.6850913 .8731877 .4216216
.7844548 .8745762 .4256649
.8912134 .8772556 .4275611
.3519434 .9897894 .4585304
.3682317 .9897674 .4587479
.4061721 .989711 .4593012
.4614677 .9900169 .459361
.535194 .9903807 .4594698
.6201692 .9904829 .4594446
.7123545 .9910977 .4617648
.8082919 .992699 .4674302
.9011461 .9945549 .4769939
.3519434 .9897894 .4585304
.3682317 .9897674 .4587479
.4061721 .989711 .4593012
.4614677 .9900169 .459361
.535194 .9903807 .4594698
.6201692 .9904829 .4594446
.7123545 .9910977 .4617648
.8082919 .992699 .4674302
.9011461 .9945549 .4769939
.04644599 .02266434 .4287774
.1227637 .02759508 .4285127
.224051 .03087405 .42805
.3310681 .04320492 .4275526
.4363455 .06050266 .4274342
.5397086 .07983647 .4305331
.6467276 .1098053 .4401636
.7619305 .1319372 .4462656
.8744128 .1570621 .453452
.04425833 .1650079 .428758
.1242691 .1662998 .4287157
.2265643 .1686547 .4282189
.331638 .1715385 .4277973
.4346441 .17603 .4276658
.539292 .1818126 .4307578
.647465 .1963435 .4402342
.7617901 .2090692 .4475278
.8748692 .2257221 .4550636
.09019706 .2989406 .4317791
.1467636 .2998655 .4315496
.2352159 .3021741 .4310113
.3354864 .303716 .4308065
.4394882 .3046158 .4322399
.5435476 .3074254 .4347532
.6487533 .3196936 .4428116
.7617829 .3284227 .4508569
.8759748 .3398679 .4604004
.1237443 .4357722 .4383623
.1725817 .4365521 .438382
.2514662 .4378958 .4385089
.3477877 .440386 .438862
.4484928 .4445811 .4420649
.5480396 .4458853 .4444111
.6520305 .4516368 .4494275
.7625508 .4604421 .458136
.8752513 .4686951 .4648429
.1715416 .5789046 .4500003
.2069046 .5791713 .4504706
.2755482 .5798497 .4516652
.3616773 .5811782 .4538433
.4542904 .5822496 .4563429
.5551364 .5828713 .4571401
.6619204 .5848131 .4600319
.767296 .5913284 .4661251
.875076 .6010725 .4753647
.2153627 .725754 .4670153
.2453678 .725832 .4671573
.3034765 .7258096 .4674863
.3837883 .7260324 .4686775
.4719679 .7269815 .4710085
.5673145 .7280435 .4746355
.6694078 .729628 .4765215
.7744185 .7321583 .4799029
.8817549 .7364296 .4855114
.2809661 .872524 .4959911
.3031508 .8725079 .4964429
.3523719 .8724672 .4975908
.4220307 .8727065 .4985178
.5015163 .8727649 .4993613
.5906022 .8729714 .4997073
.6873497 .8732412 .5019615
.786388 .8747051 .504986
.8904594 .8767883 .5102682
.3587515 .990033 .5338425
.3744532 .9900053 .5343114
.4115637 .9900054 .5354263
.4670751 .9901389 .5364209
.5394615 .9904061 .5363274
.6229029 .9907342 .5365578
.7146621 .9909696 .537854
.8103923 .99234 .5426627
.9036294 .9945474 .5489488
.3587515 .990033 .5338425
.3744532 .9900053 .5343114
.4115637 .9900054 .5354263
.4670751 .9901389 .5364209
.5394615 .9904061 .5363274
.6229029 .9907342 .5365578
.7146621 .9909696 .537854
.8103923 .99234 .5426627
.9036294 .9945474 .5489488
.06043613 .04637094 .5423882
.1342203 .04761993 .5420915
.2299865 .0541188 .5415661
.3328438 .06754884 .5416521
.4382299 .08111874 .5414246
.5450137 .08961885 .5413038
.6541363 .1031499 .5434755
.760756 .1238352 .548747
.8733541 .1617817 .5590726
.07860401 .1737475 .5420732
.141787 .1749446 .5419264
.2362351 .1774499 .541621
.3357038 .1820467 .5409607
.4391524 .1863128 .5404004
.5429234 .1880818 .5408174
.6532785 .1921218 .5431602
.7615147 .2046242 .5500342
.8736414 .2304526 .5605182
.1131119 .3074383 .5426152
.163226 .3077832 .5425495
.2460366 .3092481 .5422067
.3416256 .3116261 .5410548
.4418923 .3137243 .5405377
.5439237 .3144449 .5421593
.6524023 .3179393 .5449845
.7619148 .327019 .5545312
.8740475 .340615 .5619806
.1317877 .44333 .5451414
.1756826 .4434946 .5451354
.2548796 .4441017 .5453997
.3505783 .4456316 .5457117
.4500663 .4477092 .5460935
.5500655 .4494837 .5471463
.654093 .4521249 .5501696
.7644098 .4592788 .5572298
.8761734 .4695285 .5643803
.1668576 .5800874 .5478285
.2024817 .580245 .5483094
.2723669 .5805508 .5493622
.361822 .5812289 .5509508
.4586428 .5835418 .5547299
.5613267 .5872074 .5583138
.6624754 .5880553 .5592005
.7671218 .5939034 .5641689
.8764929 .603525 .5726871
.2217771 .7247567 .5638634
.2500322 .7249013 .5640748
.309185 .7252986 .5647389
.3876199 .7263002 .5657225
.4757214 .7285972 .5672947
.5688015 .7292971 .569791
.6717139 .7299488 .5707889
.77718 .7320841 .5756196
.8823244 .7354101 .5826611
.2824766 .8733118 .590202
.3048393 .8733941 .5904821
.3532156 .8737475 .5908321
.4225993 .8742223 .5918965
.503461 .8742515 .5922078
.592923 .874097 .5924565
.6896479 .8741676 .5934313
.7893431 .8752006 .59451
.8883154 .8773167 .5978228
.3585534 .9912261 .6158854
.3743064 .9913525 .6160359
.4111416 .9916744 .6164197
.4669138 .9918467 .6171837
.5388294 .9917898 .6178557
.6232924 .9919364 .6191725
.7139635 .9920383 .6228094
.8115159 .99206 .6270592
.9093248 .9929464 .6329201
.3585534 .9912261 .6158854
.3743064 .9913525 .6160359
.4111416 .9916744 .6164197
.4669138 .9918467 .6171837
.5388294 .9917898 .6178557
.6232924 .9919364 .6191725
.7139635 .9920383 .6228094
.8115159 .99206 .6270592
.9093248 .9929464 .6329201
.0957708 .07725271 .6541021
.1486502 .07998259 .6540924
.2353533 .08562068 .6540565
.3364479 .0943542 .6539342
.4431226 .1050729 .6538165
.5513895 .1085427 .6540078
.6570023 .1189394 .6545558
.764978 .1379476 .6574745
.8732288 .1534773 .6609033
.114564 .1849055 .654169
.1615072 .1861043 .6541594
.2416593 .189119 .6541348
.3391035 .1934978 .6540473
.4433046 .1989054 .6535767
.5521543 .1996807 .6538163
.6562234 .2027729 .6544032
.7642734 .2144803 .6571779
.8729853 .2262304 .6610904
.1534443 .3146417 .654141
.190114 .3151326 .6540583
.259566 .3163381 .6538656
.3476642 .3184803 .6536562
.4457336 .3211209 .6534404
.5524222 .3213247 .6540534
.6569406 .3240867 .6552672
.7642238 .3309399 .6577498
.8735027 .3401492 .6631001
.1691439 .4518684 .655189
.2067968 .4519607 .655127
.278118 .452205 .6549914
.3630379 .4530805 .6553645
.4537451 .4550618 .6555596
.5522305 .4566806 .6569963
.6576269 .4573058 .6587846
.7650352 .4613457 .659599
.8740358 .4712462 .6673288
.1811802 .5874851 .6586781
.2156357 .5876589 .6589807
.2833984 .5881012 .6597501
.371342 .5888477 .6611346
.4675527 .5900659 .6621493
.5619342 .5907777 .6634575
.663846 .5912867 .6620952
.7714934 .5944349 .6645274
.8782141 .6032575 .6720717
.2386021 .7246791 .6643983
.2625539 .7248141 .6644908
.3143061 .7251579 .6647261
.3889885 .7252757 .6656396
.476921 .7260442 .6667804
.5766452 .7292323 .6682479
.675391 .7309634 .6709086
.7792581 .7325438 .6756969
.8843181 .7390555 .6828846
.2815777 .8720038 .6826295
.3034108 .8721243 .6830326
.3519035 .872406 .6839952
.4227798 .873008 .6855924
.5064844 .8742876 .6878113
.5976181 .8749993 .6896439
.6929632 .8748482 .690149
.7899178 .8751059 .6912024
.8873359 .8773972 .6946074
.3534072 .9912379 .7070487
.3695155 .9913628 .7072533
.406873 .9917153 .7078258
.4638106 .992593 .7094156
.5354785 .9937375 .7106851
.6188914 .9941729 .7117479
.7111754 .9937782 .7141017
.8120731 .9928338 .7178565
.9112347 .9931508 .7205601
.3534072 .9912379 .7070487
.3695155 .9913628 .7072533
.406873 .9917153 .7078258
.4638106 .992593 .7094156
.5354785 .9937375 .7106851
.6188914 .9941729 .7117479
.7111754 .9937782 .7141017
.8120731 .9928338 .7178565
.9112347 .9931508 .7205601
.1224201 .09202047 .7687405
.1695237 .09445705 .7686954
.2507891 .1004204 .7685801
.3492227 .1095627 .7681977
.4536155 .1219608 .7677121
.5580928 .1319882 .7677274
.6625814 .1402244 .7674043
.7708769 .1447242 .7682469
.8778477 .1643256 .7703913
.1359531 .1891849 .768421
.1796055 .190376 .7683722
.257641 .1933756 .7682489
.3524386 .1987189 .767993
.4564039 .2052625 .7675984
.5590265 .2139288 .7674215
.6636844 .2177624 .7675959
.7693415 .2199953 .7679843
.8780093 .2311511 .7703426
.1582508 .3227112 .7675515
.1973441 .3230682 .767572
.2707747 .3239751 .7676241
.3624331 .3262576 .7675955
.4615661 .3301561 .7668954
.5615811 .3324147 .7669566
.6650607 .3335168 .7679029
.7695006 .3355977 .7676023
.8780274 .3423001 .7708313
.1891977 .4596004 .7682096
.2218469 .4596761 .7683464
.2861928 .4601165 .7686502
.3712817 .4610626 .7689474
.4684256 .4617457 .7689568
.5658227 .4636616 .7690755
.6646971 .4650262 .7693014
.7684259 .4669976 .7691591
.878315 .4720806 .7718696
.2052501 .594114 .7710888
.2348806 .5942925 .7711653
.2935372 .5944199 .7710008
.3783383 .5956877 .7708678
.4749231 .5973067 .7706649
.5708348 .5983927 .7710563
.6706969 .5973592 .7718629
.7722843 .5991819 .7724524
.8797892 .6024252 .7742636
.2507388 .7294918 .7731839
.2754287 .729508 .7730718
.3288683 .729595 .7728921
.4041295 .7297264 .7728229
.4913587 .7299352 .7730955
.5789845 .7319512 .7754099
.6761345 .734426 .7766068
.7804483 .7359851 .7776787
.8862793 .7392468 .7826045
.2775502 .8717558 .7822889
.3001832 .8718218 .7825472
.350248 .8718362 .7832404
.4216797 .8717882 .7841294
.5072983 .871663 .7849013
.6014559 .8734615 .7859973
.6958341 .875214 .7878401
.7904341 .8770685 .7897379
.8898652 .8787845 .7913758
.3456281 .9905145 .7985798
.3620449 .9907077 .7987532
.4002908 .9912246 .7991664
.4582463 .9920972 .7999105
.532707 .9931665 .8014851
.6216562 .99384 .803453
.7165745 .9947079 .806665
.8141093 .9939647 .8094507
.9097849 .9940396 .8131536
.3456281 .9905145 .7985798
.3620449 .9907077 .7987532
.4002908 .9912246 .7991664
.4582463 .9920972 .7999105
.532707 .9931665 .8014851
.6216562 .99384 .803453
.7165745 .9947079 .806665
.8141093 .9939647 .8094507
.9097849 .9940396 .8131536
.1494974 .132098 .8831505
.1908112 .1336367 .8831083
.2665448 .1377363 .883007
.3590921 .1445988 .8828468
.4605157 .151993 .8827136
.5704995 .1545691 .8821797
.673144 .1661929 .8818554
.7776834 .18163 .8816096
.883572 .1937344 .8829902
.1605033 .2133118 .883019
.1995364 .2144426 .8830081
.272591 .2164825 .8829669
.3638874 .2202533 .8828856
.4632118 .2260495 .8827511
.5710149 .2279023 .8820279
.6734215 .2343942 .8814278
.7794383 .2486596 .8816362
.8830364 .2557756 .8829524
.179885 .3362528 .8830112
.2147547 .3367127 .8829885
.2831033 .3378808 .8829307
.3715167 .3399494 .8828297
.4704977 .3428896 .8829039
.5716506 .3444512 .8817893
.6760741 .3509617 .8811601
.7811888 .354038 .8810842
.8833102 .360631 .88246
.2031119 .471588 .8836587
.2343213 .4717969 .8837593
.2977017 .4725016 .8839296
.381266 .4728072 .8838773
.4767616 .4751701 .8833316
.5740666 .4796695 .8823061
.6777902 .48045 .881328
.7808696 .4795607 .881732
.8843235 .480476 .8831146
.2259749 .6079602 .8836874
.2528048 .6081037 .8836427
.3127872 .6090349 .8834597
.3932424 .6100233 .8830785
.4864856 .6108043 .8827244
.5829948 .6109374 .8824558
.681971 .6090599 .882811
.7842876 .6084837 .8832156
.8855056 .6098937 .8841393
.2721846 .7405021 .8841039
.2939707 .7405472 .8840933
.3426389 .7406339 .8840731
.4140996 .7407765 .8840974
.4980443 .7414572 .8845114
.585684 .7417372 .8851545
.6863585 .743742 .8863057
.7885754 .7437467 .8877898
.890423 .7438467 .8887399
.309983 .8754718 .8895457
.3295954 .8754675 .8896369
.3740313 .8754988 .889842
.4403028 .8755548 .8902075
.5223698 .8752505 .8904023
.6062939 .8764592 .8906612
.6935756 .8779532 .8910437
.7908539 .8810521 .8917742
.8965204 .8826453 .8943087
.3433332 .9911488 .8987713
.3602126 .9912302 .8989214
.3993491 .9914373 .8993031
.4590104 .991807 .8999041
.5342066 .9922494 .9004468
.6223531 .992803 .9013498
.7177908 .9936214 .9026438
.8149313 .9948407 .9046541
.9100599 .9972234 .9068019
.3433332 .9911488 .8987713
.3602126 .9912302 .8989214
.3993491 .9914373 .8993031
.4590104 .991807 .8999041
.5342066 .9922494 .9004468
.6223531 .992803 .9013498
.7177908 .9936214 .9026438
.8149313 .9948407 .9046541
.9100599 .9972234 .9068019
