Camera r&d/Filters/1999-modified.cube
# 3D LUT of size 33x33x33 converted by Filestar.
#   Input:
#     color space: sRGB
#     white point: default (D65)
#     transfer function: default (sRGB)
#   Output:
#     color space: sRGB
#     white point: default (D65)
#     transfer function: default (sRGB)
#   Contrast: +45
#   Vibrance: -6
#   Saturation: -4
LUT_3D_SIZE 33
.01493425 .02636689 0
.03567247 .02264194 0
.06061629 .01884092 0
.08482931 .01691639 0
.1131842 .00895716 0
.1419624 0 0
.1703259 0 .00046934
.1974604 0 .00415077
.2247227 0 .00803324
.2515103 0 .01080229
.2783959 0 .01415019
.3045947 0 .01764715
.3305365 0 .02110601
.355489 .00671154 .02265502
.3802449 .01408956 .02405844
.4064654 .01945537 .02642081
.4339997 .02028093 .03086671
.4618208 .02089828 .03476166
.4892907 .02384906 .03793235
.5169666 .02544717 .04343003
.5447395 .02763791 .04896802
.5724105 .03230863 .05260035
.5992039 .03777605 .05665068
.6262914 .0473671 .06449247
.6539872 .05658451 .07281787
.6819412 .06412335 .07958115
.7103674 .07010265 .08594028
.7386472 .07662851 .09225001
.7663606 .08622884 .09863832
.7940689 .09539533 .1049581
.8217686 .1042202 .1111086
.8495499 .1128129 .1161053
.8773243 .1211684 .1211106
.02145415 .05377597 0
.04727778 .05116713 0
.0693392 .0482914 0
.09371116 .04396112 0
.117201 .04098726 0
.1434358 .03730351 0
.1702589 .03490444 .00388377
.1975124 .03300669 .00729392
.223955 .03183042 .01111521
.2507376 .03132953 .01526913
.2765177 .03480411 .01917132
.3027041 .04198861 .02166972
.3292944 .04834028 .02365598
.354343 .05288389 .02518611
.3797216 .05720428 .02712351
.4064392 .06084562 .02842897
.4339283 .06318608 .03106839
.4617388 .06381474 .03475414
.4892145 .06592441 .03792584
.5168768 .0671768 .04308598
.5447361 .06731741 .05031134
.5724463 .06971972 .05416906
.599178 .07345373 .05822579
.626301 .0795339 .06564365
.6540405 .08586847 .07380316
.681913 .09138488 .08044279
.7103408 .09592334 .08674888
.7387115 .1005669 .0929854
.7664223 .1082853 .09933171
.7941277 .1158625 .1056128
.8218735 .1233281 .111766
.8496506 .1307231 .1167364
.8773971 .1380244 .1219032
.0290925 .07924709 0
.05178137 .07789742 0
.07177696 .07634706 0
.09449404 .07409576 0
.1191569 .07222166 0
.1435157 .07307399 .00347525
.1705635 .07270006 .00726217
.1967881 .07321299 .01108932
.2236201 .07365631 .01547425
.2505509 .0738076 .01945398
.2762181 .07620319 .02244276
.302904 .07998773 .02424577
.3290526 .08412207 .02586268
.3541272 .08710722 .02743382
.3796356 .08997025 .02912419
.4064212 .09235442 .03111048
.4339359 .09407692 .03360056
.4616639 .09606545 .03505827
.4891285 .09780227 .03791694
.516775 .09881563 .04269372
.5446379 .09892952 .04970027
.5724671 .09911437 .05528535
.5991464 .1017755 .05996534
.6262969 .106038 .06681521
.6541478 .1108513 .07479636
.6818814 .1154776 .0814082
.7103109 .1191686 .08765507
.7386966 .122937 .09383551
.7664917 .1290496 .1001103
.7941941 .1355067 .10635
.8219702 .1419678 .1124187
.8497644 .1484422 .1174464
.8774664 .1548999 .1228955
.0312504 .1118011 .00089827
.0536091 .1109652 .00053563
.07325251 .1100135 .00012409
.09595575 .1097485 .00239232
.1214983 .1096513 .00506191
.1469132 .1099976 .00783474
.1707597 .1124508 .01039013
.1970355 .1127976 .01436709
.2241648 .1129879 .01879873
.250762 .1131342 .02266429
.2765376 .1141862 .02613668
.3031911 .1168613 .02793817
.3287058 .1198757 .02902726
.353818 .1219959 .03065839
.3796674 .1240124 .03091162
.4063951 .125576 .03495639
.4339841 .1268278 .03729519
.4617414 .1282655 .03882112
.4891088 .1306956 .03961977
.5166241 .1325333 .04169913
.5444533 .1325752 .04744175
.5722545 .1325848 .05307794
.5989642 .1330092 .06134573
.6264648 .1357629 .06846314
.6543016 .1394457 .07620265
.681836 .1434027 .08277594
.7102679 .1464015 .08894023
.7386558 .149489 .09504823
.7665914 .1540806 .101218
.7942892 .1595167 .107399
.8221076 .1650281 .1133443
.8499277 .1706036 .1184569
.877566 .1762154 .1243061
.03592785 .1472915 .00430549
.05789135 .1473047 .00537289
.07716312 .1473189 .00658267
.0993278 .1473734 .00830128
.1234245 .1474919 .01059271
.1477848 .148086 .01290939
.1728767 .1489894 .01580198
.1987759 .1500535 .01961844
.2248942 .1511731 .0232634
.2510445 .1513252 .02697415
.2770249 .1514693 .031034
.3033896 .1527433 .03342698
.3285663 .1543196 .03433174
.3537174 .1558243 .03610244
.3800771 .1572656 .03470866
.4068617 .1589515 .03862111
.4339971 .1607416 .04207939
.4617592 .1617159 .04351562
.4890999 .1635521 .04293375
.5164575 .1654965 .04212875
.5441536 .166699 .04521734
.5713598 .1672837 .05209512
.5985156 .1677408 .05907929
.6265736 .1686755 .06854783
.6544992 .17058 .07813885
.6819553 .1737576 .08451822
.7102101 .1763857 .09064212
.7386009 .1789359 .0966543
.7667252 .182224 .102688
.7944172 .1868002 .1087917
.8222923 .1914901 .1145764
.8501465 .1962692 .119802
.8776996 .2011112 .126175
.04177324 .1849255 .01048638
.06213381 .1847667 .0118822
.08039991 .1845869 .0134609
.1018957 .1843393 .01557363
.1249796 .1843596 .01763039
.1492073 .1846527 .02027848
.174397 .1850706 .02362178
.2002146 .1857767 .02719028
.2269042 .1864262 .03036634
.251539 .1873112 .0336422
.2774857 .1870833 .03794318
.3031282 .1872806 .04193138
.3281309 .18853 .04256921
.3537192 .1898052 .04263171
.3801962 .190941 .04155835
.406938 .1923108 .04458196
.4340532 .1942122 .04602742
.4616421 .1958239 .04609502
.4890023 .1973088 .04539415
.5163662 .1989018 .04461806
.5439836 .2000712 .04663273
.5709439 .2012166 .05270766
.5981293 .2025799 .05766042
.6264566 .2039715 .0656842
.6545224 .2049523 .07651409
.6821565 .2060652 .08590434
.7101364 .2081238 .0927735
.7385309 .2102584 .09867049
.7668864 .2124735 .1045385
.7945801 .2163313 .1105452
.8225278 .2203455 .1161303
.850324 .2244508 .1222666
.8778378 .2288932 .1284432
.05123053 .2203545 .0170082
.06958092 .2202219 .0184617
.08659134 .2200719 .02010531
.1060679 .220184 .02205547
.1279047 .2203463 .02465821
.1513345 .2205524 .02797989
.1758376 .2208056 .03206465
.2017734 .2211134 .03537223
.2276905 .2216635 .03836997
.2527439 .2223934 .04127226
.277452 .2234273 .0445892
.302573 .2232058 .0493027
.3275803 .223352 .05076043
.3535347 .2243627 .0486753
.3801314 .2252735 .04688394
.4070064 .2263879 .04775982
.4342664 .2279359 .0488379
.4617399 .2295389 .0490206
.4888818 .2316867 .04830983
.516254 .2330201 .04756372
.5437742 .2341883 .04833738
.5705345 .2352256 .05540948
.5983359 .2363288 .06032025
.6265307 .237883 .0668798
.6545793 .2396702 .07487416
.6821046 .2414821 .082596
.7098577 .2423826 .0918541
.7384217 .2429866 .1007016
.7668042 .244706 .106847
.7948681 .2474187 .1125406
.8227856 .2508761 .1182515
.8504759 .254772 .1250526
.877957 .2589232 .1310585
.06240276 .2561554 .02618579
.07804809 .2562164 .02733128
.09310208 .2562858 .02860956
.1115094 .256389 .03030629
.1324664 .2565273 .03258669
.1551814 .256704 .03549295
.1795844 .2568762 .03824982
.2051538 .2571731 .04044812
.2298422 .2576861 .04240224
.2538207 .2583162 .04451902
.2783064 .259014 .04701764
.3033237 .2597152 .04945596
.3281314 .2598845 .04981917
.3536882 .260126 .04987828
.3805421 .260457 .04910303
.4078372 .2610089 .048772
.4350781 .2619886 .05051909
.4623592 .2632227 .05165281
.4894178 .2650466 .05154246
.5162638 .2672762 .05092876
.5429355 .2688252 .05395696
.5707209 .2696423 .05857435
.5985833 .2706544 .06339842
.6266691 .27198 .06939562
.6548559 .2734742 .07660589
.6823509 .275148 .08391694
.7098487 .276899 .09107905
.7379946 .27833 .09785233
.766503 .2791764 .1060583
.7951805 .279907 .114299
.8228828 .2831319 .1213907
.8505452 .2866653 .1279751
.8780997 .2902946 .1341254
.06767076 .2928897 .03338569
.08253021 .2929301 .03444491
.09701056 .2929751 .03564464
.1149072 .2930404 .03736369
.1354295 .293128 .03967126
.1579203 .2932281 .04194824
.1816728 .2933482 .04386439
.206484 .2934492 .0459629
.2298681 .2938907 .04774616
.2538438 .2944312 .04971449
.2786042 .2949378 .05113269
.3035975 .2954731 .05200659
.3284444 .2960997 .05181295
.3544408 .2968694 .05125707
.3811278 .2968987 .05136456
.4086222 .297278 .04866459
.4357636 .2980956 .04989643
.4630861 .2990074 .05038153
.4903675 .3001149 .05052876
.5173858 .3016481 .05201288
.5437719 .3023189 .05696245
.5712878 .303895 .0607731
.5990378 .3051071 .06601381
.6269307 .3063167 .07160053
.6551048 .3077206 .07861026
.6826758 .3091985 .08565439
.7101411 .3107653 .09280447
.7377599 .3124352 .09956383
.7661947 .3138516 .1057439
.7946021 .3156377 .1132185
.8227283 .3178145 .1209175
.850563 .3198496 .1302817
.8782672 .3226461 .1376382
.0710646 .329692 .04141076
.08489873 .329735 .04241723
.09854294 .3297835 .04353775
.1155616 .3298532 .04511436
.1358358 .3299148 .04647172
.1581561 .329982 .04792692
.1817747 .3300649 .04967837
.2058137 .3301834 .05157918
.2296333 .3303154 .05274756
.2541353 .3305556 .05388261
.2789838 .3308202 .05494054
.3036596 .3311773 .0546647
.3288911 .3316128 .05539948
.354802 .332436 .05616447
.3824432 .3334536 .05390619
.409692 .3336913 .05150458
.4367892 .3343674 .05227493
.4640188 .3351275 .05283207
.4915118 .3358796 .05507901
.5181946 .3363374 .05979019
.545009 .3366162 .06289086
.5724568 .3377185 .06549161
.5998482 .3394706 .06968678
.6275051 .3406477 .0740343
.6554719 .3420696 .07979282
.6831625 .3435869 .08599209
.7105181 .3452618 .0930564
.7377599 .3470155 .1009593
.7657524 .3486231 .1084787
.7941846 .3500178 .1155783
.8225671 .3516183 .1228013
.8504416 .3541695 .1303445
.8781517 .3570221 .1371203
.09173559 .364359 .03967619
.1021143 .36455 .04162367
.1128998 .3647737 .04365
.1268466 .3651003 .04644648
.1427387 .3655851 .04994541
.1605489 .3662119 .05417513
.1824664 .3664466 .05587008
.2061603 .3665559 .05681468
.2306986 .3666681 .05800137
.2562115 .3667211 .05977812
.2812975 .3668115 .06119926
.305957 .3669168 .06138801
.3307298 .3671383 .06171863
.3557441 .3677576 .06108291
.3829073 .3686467 .05935915
.4109091 .3696747 .05712079
.4379211 .3706129 .05682462
.4653168 .371219 .0587169
.4922384 .3715242 .06307969
.5195392 .3712836 .06686723
.5463784 .3714417 .06990611
.5738799 .3720892 .07240718
.6012267 .3734401 .07586659
.6285489 .3750925 .07985059
.656146 .3765549 .08454447
.6836097 .3782176 .09082378
.7108341 .3797647 .097897
.7381184 .3814542 .1049855
.7655135 .383224 .1118477
.7937533 .3847166 .1183052
.8221775 .3859997 .1251256
.8505878 .3873042 .1318885
.8783104 .3902382 .1400649
.09761161 .4005721 .04137154
.1088945 .4006358 .04141131
.12069 .4007321 .04149805
.1365465 .4009551 .04175733
.1540355 .4011024 .04306877
.1730538 .4010388 .04763222
.1937704 .4009604 .05288146
.2142877 .4013165 .06014471
.2349715 .4022196 .06701133
.2598734 .4023062 .06884155
.285337 .4023599 .07055867
.3103141 .4024199 .07098237
.3353422 .402757 .07030358
.3598674 .4034037 .06947858
.3846797 .4041132 .06856266
.4121684 .4047874 .06678925
.4398371 .4057587 .06820983
.466444 .4067476 .07191842
.4932808 .4067904 .0736784
.520313 .4068615 .07538749
.5476299 .406696 .07811946
.5750212 .4072834 .08061322
.6024779 .4078558 .08360588
.6297353 .4092163 .08782605
.6569654 .410477 .09184807
.6844229 .4120056 .09757953
.7118305 .4136541 .1037373
.738966 .4155345 .1107865
.7661594 .4174309 .117684
.7937483 .4190105 .1240885
.8220038 .4203927 .1302104
.8502853 .4219424 .1359864
.8784017 .4244732 .1458824
.1071147 .4362932 .06242615
.1175312 .4363469 .06245605
.1283458 .436408 .06249025
.1424505 .4364953 .06253906
.1594189 .4366125 .06260429
.178656 .4367621 .06268773
.1996405 .4369461 .06278998
.2219601 .4371662 .06291157
.2444565 .4373234 .06331163
.2679515 .4375431 .06414931
.2898234 .4380425 .07498919
.3142631 .4381558 .07881052
.339251 .4384891 .07853929
.364158 .4390033 .07940205
.3893461 .4395681 .08034053
.4143142 .4402124 .0811465
.4411074 .4405757 .08159513
.4680958 .4412923 .08374374
.4954517 .4421776 .08534399
.5220653 .4421746 .08683155
.5487529 .4421712 .08839964
.5760563 .442586 .09045117
.6034051 .4431483 .09279823
.630958 .4435581 .09670217
.6579101 .4446952 .09970569
.6854313 .4460396 .1046142
.7130805 .4475133 .1097835
.7403679 .4491444 .1159815
.7674611 .4509274 .1226752
.7945787 .4527869 .1293318
.8220722 .4545279 .1346812
.8502551 .456729 .1435137
.8780342 .4593014 .1546952
.1145194 .4723877 .07944328
.1243882 .4724227 .07948457
.1347098 .4724625 .07953074
.1482644 .4725194 .07959724
.1646855 .472596 .07968625
.1834173 .4726937 .07979903
.2039579 .4728138 .0799376
.2258726 .4729709 .08009172
.2488557 .4731796 .08011032
.2726181 .4734458 .07969517
.2970344 .4737473 .07923392
.3209037 .4739193 .07889559
.3437734 .4746965 .08194403
.3682012 .4750691 .08309077
.3921266 .4751309 .09124792
.4174961 .475277 .09226508
.4428356 .4754409 .09431594
.4695326 .4757751 .0971553
.4968748 .4764239 .0981906
.5241047 .477375 .09901562
.5510232 .4776698 .09960886
.5780526 .477946 .1012383
.6049567 .4785645 .1025538
.6319376 .4790742 .1045912
.6592313 .4792268 .1082335
.6867031 .4802966 .1117371
.7143361 .4816331 .1164806
.7418112 .4830601 .1217297
.7689382 .4846544 .1279026
.7959906 .4863538 .1343055
.8231215 .488409 .1416022
.8506397 .4908089 .1525427
.8779842 .4929394 .1632801
.1223662 .5087179 .09469535
.1313873 .5087326 .09501977
.1409099 .5087494 .0953845
.1535284 .5087735 .09590585
.1689539 .508806 .09660187
.1868866 .5088599 .09724263
.2069222 .5089999 .09715488
.2284051 .5091673 .0970488
.2510134 .5093639 .09692524
.2745001 .5095906 .09678181
.2986761 .5098487 .0966183
.3233982 .5101392 .09643473
.3475655 .5104755 .09667707
.3722274 .5106541 .09555235
.396102 .5108149 .096217
.4211064 .5107788 .09712309
.445933 .510958 .09922691
.4712967 .5109546 .1068543
.4981782 .5115702 .1097314
.5255609 .5122837 .1114103
.5528635 .5130574 .1123145
.5798988 .5137494 .1129907
.6070567 .5139527 .1133497
.6340793 .5145135 .1141757
.6609486 .5149159 .1153712
.6884488 .5148813 .1190439
.7158278 .515972 .1235661
.7432346 .5172363 .1281214
.7704936 .518626 .1336305
.7972322 .520411 .141495
.8237424 .5223506 .1515937
.8502622 .5246187 .1613649
.8775649 .5267038 .1698434
.1342573 .5448932 .1095297
.1422629 .5449463 .1096396
.1508044 .545006 .1097638
.1622488 .5450921 .1099408
.1764524 .545203 .1101789
.1934787 .5452917 .1104843
.2124118 .5454012 .1108579
.2328718 .5455319 .1113047
.2545438 .5456856 .1118267
.2771711 .5458496 .1124081
.3003724 .5459132 .1134979
.3246478 .5459554 .1143125
.3487739 .5460704 .1147398
.3733399 .5462344 .1137808
.3982522 .5464146 .1127162
.4234517 .5466115 .111543
.4489339 .546598 .1106122
.4740273 .5466661 .1119128
.5002613 .5472205 .1149496
.5268539 .5475892 .1214161
.554158 .5482913 .123164
.5820716 .5490837 .1248367
.6092601 .549986 .1254079
.6359791 .550334 .1254614
.6627575 .5504536 .125643
.6895535 .550639 .1277319
.7168193 .5512651 .1327766
.7439234 .5523549 .138206
.7709023 .553606 .144457
.7975356 .5549045 .1515478
.8239565 .5567314 .1598228
.8504571 .5587472 .1684603
.8770607 .5608814 .1768821
.1433169 .5809394 .1216771
.1509385 .5809627 .121754
.1591125 .5809891 .1218414
.1701224 .5810269 .1219664
.1836581 .5810775 .1222139
.1995293 .5811087 .1226566
.2177151 .5811412 .122993
.2380717 .581113 .1234023
.2597612 .5810701 .1238807
.2822421 .5811023 .1244909
.3054381 .5811784 .1252117
.3291861 .5813004 .1260423
.3527703 .5816408 .1268736
.3765304 .581995 .1273589
.400635 .582103 .1275757
.4250864 .5822174 .1278337
.4499652 .5823554 .1278064
.4755789 .582557 .1265776
.5024329 .5827608 .1267638
.5293084 .5832862 .12946
.5562032 .5839269 .132578
.5836249 .5845975 .1359501
.6103728 .5853681 .1389108
.6367393 .5861856 .1406315
.6634225 .5866525 .1409525
.689814 .5868697 .1410648
.7174184 .5865388 .1452025
.7441408 .5877633 .1489746
.7711315 .5886815 .152913
.797852 .5901821 .1598532
.8242676 .5919237 .1675734
.8505559 .5938002 .1757419
.8771859 .595816 .1828046
.1530333 .6166678 .1346734
.1602738 .6166719 .1347893
.1680753 .6166761 .1349208
.178638 .6166824 .1351091
.1918375 .6166976 .1353274
.2073584 .6167187 .1355969
.2248475 .6167444 .1359285
.2439654 .6167753 .1363243
.2645617 .6167943 .1367888
.2868088 .6167418 .1373289
.3099031 .6166818 .137942
.3334579 .6167146 .1387214
.3569291 .6168634 .1393234
.3805886 .6171261 .1398681
.4045149 .6175346 .1405747
.4289492 .6179745 .141282
.4540383 .6181545 .14147
.4793665 .6183494 .1416724
.5049799 .6185772 .141978
.5314685 .6191536 .1435739
.5588264 .6197771 .1454111
.585563 .6203276 .1480798
.6115538 .6209778 .1503182
.6377645 .6216334 .1518233
.6638105 .6222686 .1555001
.690274 .6229814 .1558188
.7165409 .6229322 .1534792
.7441865 .6230735 .157158
.771236 .6242435 .162253
.7981288 .6257447 .1684573
.8252845 .6274251 .1735915
.8522148 .6292431 .1792523
.8794407 .6307931 .1845634
.1607958 .653312 .1478982
.1678534 .6533001 .1480204
.1754794 .6532869 .1481583
.1858344 .6532679 .1483563
.1988294 .6532423 .1486211
.214162 .6532097 .1489584
.2314926 .6531695 .1493723
.2504915 .6531213 .1498673
.2708073 .6530735 .1504357
.2918126 .6530927 .151011
.314339 .6530741 .1517323
.3377988 .653132 .1524975
.3617458 .6532612 .1533111
.3859204 .6534221 .1537887
.4103247 .653598 .1540727
.4350946 .6537902 .1543831
.4600713 .6540802 .1547917
.4850821 .6545686 .1553546
.5102384 .6547738 .1555164
.5360311 .6550624 .1561102
.5610503 .6558415 .160024
.587278 .6562657 .1605216
.6131132 .6568174 .1609201
.6383025 .65722 .1617473
.6641492 .6579277 .1616416
.690604 .6589069 .1622611
.7173761 .659755 .1639819
.7447611 .6600941 .165658
.7728302 .6602988 .1698472
.7997712 .661786 .1728715
.8270158 .6626328 .178444
.8537477 .6637679 .1859381
.8810805 .6653227 .1910799
.1673348 .690218 .1605934
.1742642 .6902077 .1606895
.1817698 .6901963 .1607976
.1919824 .6901799 .1609527
.2048301 .6901578 .1611606
.2200276 .6901297 .1614258
.2372484 .6900951 .1617514
.2561675 .6900536 .1621402
.2764773 .6900004 .1625758
.2979386 .6899378 .1630704
.3203475 .6898662 .1636325
.3433716 .6898772 .1643392
.3673972 .6898734 .1651837
.3919396 .6898693 .1661138
.4163468 .6899608 .1668381
.4407032 .690101 .166988
.4654707 .6902477 .1666328
.4904158 .6904337 .1670278
.5156358 .6906676 .1674626
.5410215 .6911556 .1683892
.5655996 .6915077 .168799
.5908301 .692147 .1689461
.6162943 .69302 .1683425
.6409466 .6941323 .1696441
.6668678 .6946954 .1692992
.6930355 .6953494 .169377
.7196099 .6965005 .1703593
.746483 .6974291 .171513
.7739609 .6971548 .1771854
.8015222 .6973101 .183081
.8282367 .6983703 .1883255
.8546024 .6999612 .1932696
.8823201 .7008176 .1985669
.1792385 .727012 .1720288
.1857132 .7270008 .1720499
.1927575 .726988 .1720742
.202394 .7269698 .1721084
.2145892 .7269453 .1721545
.2291054 .7269141 .1722134
.2456518 .7268756 .1722862
.2639301 .7268296 .1723729
.2836626 .7267755 .1724748
.304605 .7267132 .1725922
.326441 .726661 .1727846
.3485098 .7267138 .1734388
.3715157 .7267556 .1741932
.3957838 .7268054 .1753003
.4204835 .726839 .1764656
.4457445 .7268949 .1780409
.4705635 .7267884 .1789489
.4966503 .7268322 .1802265
.5206055 .7271179 .1809606
.5444441 .7274644 .1816191
.5689815 .7278786 .1826702
.5945657 .7285333 .1811025
.6201366 .7295079 .1803897
.64575 .73029 .1793452
.6706958 .7311617 .1789286
.6946488 .7323983 .180972
.7210681 .7332609 .1814202
.7475725 .7342145 .1829749
.7739585 .734768 .186667
.8011258 .7353972 .1915039
.8290421 .7355037 .1979073
.856389 .7359546 .2039112
.8838204 .7368413 .207573
.1948191 .7636911 .1820708
.2007566 .7636942 .182202
.2072501 .763698 .18235
.2161869 .7637032 .1825619
.2275749 .7637102 .1828457
.241228 .7637192 .1832078
.2569041 .7637303 .183652
.2743385 .7637433 .1841578
.2933343 .7637523 .1846257
.3126665 .763553 .1846539
.3343326 .763566 .185491
.3565506 .7636445 .1864398
.3788168 .7637511 .1873626
.4009643 .7638873 .1882172
.4244156 .7639755 .1892554
.4483332 .7640721 .1903833
.472648 .764177 .191601
.4971763 .7642907 .1927549
.5215057 .7644064 .1928421
.5462471 .7645373 .1940261
.5716951 .7647182 .1947645
.5977692 .7651705 .1942257
.6234702 .7656933 .1944578
.6484314 .7663702 .1954445
.6732465 .7674537 .1966414
.6982102 .7685218 .1977919
.7234768 .769382 .1980092
.7492918 .7702802 .1968712
.77629 .7713202 .1971171
.8026757 .7718186 .2000588
.8304064 .7721285 .2053708
.8592296 .7718788 .2118205
.8867503 .7719581 .2180197
.2192049 .8000307 .2009999
.2241819 .8000297 .2010746
.2296694 .8000287 .2011586
.237288 .8000273 .2012792
.2471001 .8000252 .2014413
.2590039 .8000227 .2016478
.2728347 .8000196 .2019014
.288395 .8000157 .2022047
.3054799 .8000113 .20256
.3238886 .8000062 .2029695
.3428011 .8001551 .203335
.3624819 .8003198 .2036111
.3830152 .8005033 .2039185
.4042791 .8007067 .2042583
.4262064 .8009261 .2046394
.4493399 .801045 .204601
.4734318 .8011139 .2061274
.498337 .8011238 .2082589
.523876 .8011622 .209962
.5501596 .8012582 .2105239
.57574 .8014147 .2110558
.6009099 .8017617 .2123499
.6262443 .802168 .2138523
.6517488 .8025989 .2154323
.6766238 .8033224 .2161843
.7016612 .8040936 .2169991
.7268573 .8052561 .2190621
.7526309 .8064477 .2195936
.7786384 .8071741 .2203092
.8052841 .8074422 .2224194
.8326196 .8073838 .2275307
.8604889 .807403 .2336749
.8884304 .8076053 .2364332
.2340371 .836197 .2210366
.2387233 .8361908 .2211483
.2439033 .8361836 .2212749
.2511187 .8361732 .2214562
.2604477 .8361593 .2216997
.2718147 .8361416 .2220096
.2850827 .8361198 .2223903
.3000784 .8360937 .2228453
.3166158 .836063 .223378
.3343593 .8360662 .223981
.3527521 .8362167 .2246295
.3716558 .8363341 .2245602
.3918069 .8364639 .2253231
.4127243 .8366061 .2261696
.434392 .83673 .2270745
.4573032 .8369076 .2272238
.4816484 .8369836 .2275999
.5063614 .8370655 .2280119
.530221 .8373404 .2288863
.5544024 .8376354 .2298207
.5788651 .8379509 .2308155
.6033109 .838299 .2318873
.6286504 .83869 .2336301
.6542373 .8390595 .2359145
.6799366 .8394598 .2382707
.705776 .8398756 .2409752
.7311378 .8403026 .2439902
.7562162 .8408573 .2467123
.7818028 .8417613 .2482314
.8077748 .842466 .2492664
.8358878 .8420406 .247539
.8637351 .8422801 .2476423
.8904599 .8430172 .249621
.2530802 .87221 .2447145
.2573574 .8722009 .2448467
.2621011 .8721905 .244996
.2687348 .8721756 .2452101
.2773526 .8721556 .2454974
.2879117 .8721301 .2458633
.300309 .8720988 .2463126
.3147986 .8720761 .246567
.3309553 .8720537 .2467814
.348059 .8721195 .2469339
.3661484 .8722451 .2470547
.3852765 .872377 .247164
.405229 .8724825 .2471698
.4259933 .8725995 .2471763
.4468799 .8727992 .2473428
.4679531 .8730746 .2476524
.4895901 .8733739 .2479881
.5127275 .873593 .2489699
.5362176 .8737476 .2506928
.5599483 .8738899 .2526761
.5842105 .8741171 .2543895
.6086907 .8743645 .2562528
.6332623 .8745769 .2583625
.657903 .8747946 .2606934
.6825998 .8750994 .2623582
.7075771 .8754779 .2642017
.7334358 .8759022 .2661323
.7593982 .8762669 .2680414
.7852322 .8767048 .269908
.8107753 .877203 .2708024
.8382916 .8771373 .2689041
.8645496 .8776367 .2657366
.8917989 .8783928 .2647136
.2767061 .9092462 .2672405
.2807682 .9092286 .2673403
.2852824 .9092084 .2674534
.2916132 .9091798 .2676149
.2998675 .9091411 .2678323
.3100223 .9090919 .268109
.3219973 .9090313 .2684491
.335676 .9089587 .2688555
.3501554 .9089089 .2697723
.3664432 .9088787 .2698421
.382613 .9090286 .270602
.3998747 .9091954 .271449
.4179755 .909322 .2722228
.4369458 .909462 .2730771
.4569297 .9096584 .2738443
.4776199 .9098558 .274835
.4988069 .9100316 .2760279
.5205035 .9102635 .2769673
.5436165 .9104251 .2783575
.5671306 .9105968 .2798494
.5907974 .9107791 .2812856
.6146245 .9109595 .282
.6386913 .9111027 .2825798
.6629499 .9113032 .2830178
.6873856 .9115014 .2835435
.7119822 .9117136 .2841505
.7366267 .9119314 .2853965
.7614453 .9121585 .2867145
.7865208 .9124672 .288655
.8133692 .9123403 .2886032
.8400379 .9126467 .2877732
.8667614 .9131244 .2865017
.8935949 .9137599 .2852646
.2991614 .9463251 .297119
.3027054 .9463069 .2973194
.306657 .9462864 .297546
.31222 .9462569 .2978704
.3195098 .9462172 .2983057
.3285288 .9461668 .2988597
.3392342 .9461048 .2995397
.3515449 .9460302 .3003521
.3649827 .9460388 .3009943
.3796959 .9460892 .3016234
.3956471 .9461468 .3023382
.4127185 .9462114 .3031411
.4307939 .9462836 .304034
.4506769 .9462349 .3035893
.4700655 .9464485 .3038356
.4901395 .9466853 .3040982
.5108497 .9469426 .3043827
.5319304 .9471409 .3045952
