Camera r&d/Filters/1999-modified.cube
# 3D LUT of size 33x33x33 converted by Filestar.
#   Input:
#     color space: sRGB
#     white point: default (D65)
#     transfer function: default (sRGB)
#   Output:
#     color space: sRGB
#     white point: default (D65)
#     transfer function: default (sRGB)
#   Contrast: +45
#   Vibrance: -6
#   Saturation: -4
LUT_3D_SIZE 5
.01493425 .02636689 0
.2247227 0 .00803324
.4339997 .02028093 .03086671
.6539872 .05658451 .07281787
.8773243 .1211684 .1211106
.06767076 .2928897 .03338569
.2298681 .2938907 .04774616
.4357636 .2980956 .04989643
.6551048 .3077206 .07861026
.8782672 .3226461 .1376382
.1433169 .5809394 .1216771
.2597612 .5810701 .1238807
.4499652 .5823554 .1278064
.6634225 .5866525 .1409525
.8771859 .595816 .1828046
.2530802 .87221 .2447145
.3309553 .8720537 .2467814
.4895901 .8733739 .2479881
.6825998 .8750994 .2623582
.8917989 .8783928 .2647136
.3358671 .9903024 .3371413
.3910541 .9902052 .3392706
.5270645 .9903997 .3394323
.7076857 .9910851 .3483931
.9011246 .9934207 .3636531
.03829569 .00199666 .210708
.2267192 0 .2123734
.4280143 .04648457 .2202558
.6502008 .08230608 .2351541
.8753254 .1352171 .2559446
.07502545 .2919759 .2157584
.2354663 .2938472 .2199242
.4323799 .3005957 .229865
.6526085 .3109972 .2403643
.8766255 .3282309 .2627807
.1531991 .5800804 .2577583
.260364 .5804471 .2587398
.4496677 .5808675 .2619988
.6620351 .5854321 .2631285
.8762069 .5959872 .2901317
.2629448 .8720412 .3313054
.3399388 .8715054 .3334939
.494416 .8728989 .3354585
.6830826 .8745388 .3459756
.8901711 .878033 .3490819
.3441249 .9901366 .3964463
.3977727 .9900563 .397848
.530273 .9903927 .3983932
.7097776 .9910583 .4035218
.9009829 .9940721 .4206299
.04644599 .02266434 .4287774
.224051 .03087405 .42805
.4363455 .06050266 .4274342
.6467276 .1098053 .4401636
.8744128 .1570621 .453452
.09019706 .2989406 .4317791
.2352159 .3021741 .4310113
.4394882 .3046158 .4322399
.6487533 .3196936 .4428116
.8759748 .3398679 .4604004
.1715416 .5789046 .4500003
.2755482 .5798497 .4516652
.4542904 .5822496 .4563429
.6619204 .5848131 .4600319
.875076 .6010725 .4753647
.2809661 .872524 .4959911
.3523719 .8724672 .4975908
.5015163 .8727649 .4993613
.6873497 .8732412 .5019615
.8904594 .8767883 .5102682
.3587515 .990033 .5338425
.4115637 .9900054 .5354263
.5394615 .9904061 .5363274
.7146621 .9909696 .537854
.9036294 .9945474 .5489488
.0957708 .07725271 .6541021
.2353533 .08562068 .6540565
.4431226 .1050729 .6538165
.6570023 .1189394 .6545558
.8732288 .1534773 .6609033
.1534443 .3146417 .654141
.259566 .3163381 .6538656
.4457336 .3211209 .6534404
.6569406 .3240867 .6552672
.8735027 .3401492 .6631001
.1811802 .5874851 .6586781
.2833984 .5881012 .6597501
.4675527 .5900659 .6621493
.663846 .5912867 .6620952
.8782141 .6032575 .6720717
.2815777 .8720038 .6826295
.3519035 .872406 .6839952
.5064844 .8742876 .6878113
.6929632 .8748482 .690149
.8873359 .8773972 .6946074
.3534072 .9912379 .7070487
.406873 .9917153 .7078258
.5354785 .9937375 .7106851
.7111754 .9937782 .7141017
.9112347 .9931508 .7205601
.1494974 .132098 .8831505
.2665448 .1377363 .883007
.4605157 .151993 .8827136
.673144 .1661929 .8818554
.883572 .1937344 .8829902
.179885 .3362528 .8830112
.2831033 .3378808 .8829307
.4704977 .3428896 .8829039
.6760741 .3509617 .8811601
.8833102 .360631 .88246
.2259749 .6079602 .8836874
.3127872 .6090349 .8834597
.4864856 .6108043 .8827244
.681971 .6090599 .882811
.8855056 .6098937 .8841393
.309983 .8754718 .8895457
.3740313 .8754988 .889842
.5223698 .8752505 .8904023
.6935756 .8779532 .8910437
.8965204 .8826453 .8943087
.3433332 .9911488 .8987713
.3993491 .9914373 .8993031
.5342066 .9922494 .9004468
.7177908 .9936214 .9026438
.9100599 .9972234 .9068019
