Camera r&d/Filters/1999.cube
# 3D LUT of size 33x33x33 converted by Filestar.
#   Input:
#     color space: sRGB
#     white point: default (D65)
#     transfer function: default (sRGB)
#   Output:
#     color space: sRGB
#     white point: default (D65)
#     transfer function: default (sRGB)
#   Contrast: +45
#   Blacks: -56
#   Vibrance: -6
#   Saturation: -4
LUT_3D_SIZE 9
.02168799 .03067625 0
.02290798 .02948638 0
.0303826 .0267722 0
.1586731 0 0
.3239238 0 .00141364
.4644408 0 0
.591262 0 0
.7175633 0 .01136969
.845823 0 .01035445
.02496785 .02838922 .00044499
.02542361 .0276009 .00212108
.01368449 .03197683 .00124924
.1953392 0 0
.3427151 0 .00085938
.4696802 0 0
.5897378 0 0
.718735 0 0
.8470873 .08212271 0
0 .1773216 0
0 .181586 0
.04062551 .1808624 0
.2112992 .1876695 0
.3483309 .1973081 0
.4712459 .2118157 0
.5900638 .2302699 0
.7224423 .2444105 0
.8502987 .2693551 0
0 .3619883 0
0 .3625638 0
.1050124 .3640248 0
.2485725 .3637979 0
.3656525 .365611 0
.4823822 .3762128 0
.6001418 .3901794 0
.732839 .4032994 0
.8598287 .41221 0
0 .5278268 0
0 .5284193 0
.1292246 .5294902 0
.2691431 .5309194 0
.3923688 .5320378 0
.5082551 .5342203 0
.626148 .5424486 0
.7491426 .550235 0
.8672965 .5595782 0
0 .7017673 0
0 .701696 0
.118209 .7015249 0
.2769735 .7012048 0
.4088519 .7009538 0
.5266047 .7026969 0
.6423583 .7062359 0
.7586471 .7104648 0
.8766414 .7161098 0
0 .8659316 0
0 .8659257 0
.1824593 .8658624 0
.310811 .8659309 0
.4268752 .8669988 0
.5437504 .8676526 0
.6563129 .8692984 0
.7750763 .8696929 0
.8899649 .8717944 0
.1648982 .9928245 .1444661
.202927 .9928082 .1456797
.2756209 .9927775 .1483082
.3656538 .9927171 .1509584
.4659342 .9928353 .153322
.5693324 .993321 .1624593
.6791779 .9929412 .171028
.7873042 .9931278 .1844893
.8968125 .993478 .2101915
.1648982 .9928245 .1444661
.202927 .9928082 .1456797
.2756209 .9927775 .1483082
.3656538 .9927171 .1509584
.4659342 .9928353 .153322
.5693324 .993321 .1624593
.6791779 .9929412 .171028
.7873042 .9931278 .1844893
.8968125 .993478 .2101915
.01181359 .03296297 .00066428
.01461265 .03224624 0
.03410086 .02462175 0
.1651872 0 0
.3288708 0 .00111881
.4671217 0 0
.592301 0 0
.7192938 0 .01049974
.8476206 0 .0101863
.01529428 .03079169 .00463286
.01808378 .03021713 .00204091
.04211685 .01808089 .00372018
.2008863 0 0
.3452676 0 .00164029
.471247 0 0
.5911795 0 0
.720481 .00114865 0
.8495488 .06789113 0
0 .179304 0
0 .1792296 0
.06909686 .180447 0
.2197021 .1891617 0
.3542129 .1993576 0
.4729046 .2169535 0
.5911285 .2343165 0
.7250804 .2413856 0
.8545579 .2523728 0
0 .361712 0
0 .3624163 0
.1184834 .363924 0
.2546483 .3644688 0
.3700178 .3667085 0
.4849608 .3784816 0
.6037859 .3880221 0
.7378767 .3923797 0
.8638197 .4000127 0
0 .5284197 0
0 .528907 0
.1048642 .5301418 0
.2598144 .5313548 0
.3849951 .5314442 0
.5036772 .5333395 0
.6261775 .5414958 0
.7483897 .5493602 0
.8671418 .5592033 0
0 .7016656 0
0 .7015912 0
.1148985 .7014215 0
.2755155 .7011083 0
.4086217 .7007936 0
.5277607 .7023901 0
.6419571 .7062718 0
.7580551 .7102963 0
.8757752 .7158258 0
0 .8657024 0
.00091145 .8656752 0
.1851507 .8656055 0
.311936 .8656452 0
.4276959 .8667458 0
.5440971 .8674725 0
.6558713 .8691092 .02419985
.7741635 .8699387 .07412177
.8895259 .8715506 .05687963
.1714883 .9927079 .1918525
.2081511 .9926903 .1928009
.2779083 .9926382 .1944501
.3671991 .9924644 .1973355
.4671983 .992627 .1999862
.5700868 .9931113 .2066679
.6796741 .992886 .2127827
.7878785 .9931501 .2220496
.896305 .9935583 .2438598
.1714883 .9927079 .1918525
.2081511 .9926903 .1928009
.2779083 .9926382 .1944501
.3671991 .9924644 .1973355
.4671983 .992627 .1999862
.5700868 .9931113 .2066679
.6796741 .992886 .2127827
.7878785 .9931501 .2220496
.896305 .9935583 .2438598
0 .03048288 .04438355
0 .03051513 .03799638
.06127964 .00890698 .03148633
.1826185 0 .02674876
.3359949 0 .06381328
.4648815 0 .09970576
.5963088 0 .07790057
.7282481 0 .08086274
.8566692 0 .09038907
0 .02845388 .0596346
.00989803 .01547249 .05823039
.05647425 .00634007 .05131248
.2122573 0 .04833777
.3435978 0 .08131073
.4754568 0 .07826503
.599022 0 .04706134
.7297813 0 .07365743
.8577964 0 .08797539
0 .1754993 .05445613
0 .1771523 .05070126
.06243479 .1808133 .04779445
.2320419 .1843402 .0611878
.3551699 .1937029 .06382952
.4782318 .2031918 .06381389
.598926 .2083359 .04445927
.7333395 .2071075 .07536488
.8612119 .2213051 .07607722
0 .3611142 .03176087
0 .361109 .03824995
.09300546 .3624699 .04713211
.2479621 .3647272 .06713484
.3654971 .3666603 .07059518
.4830384 .3727821 .07436863
.607676 .3792605 .05625004
.7383361 .3885117 .05655593
.8656872 .3966825 .06627958
0 .5275211 .06218549
0 .5278419 .06303173
.1092112 .5287015 .06601463
.2595359 .5301487 .06890469
.3829716 .5313862 .0732181
.5004551 .5329489 .08984341
.6244999 .5404346 .09911556
.7475097 .5479259 .1010831
.8666468 .5582473 .1257041
0 .7015942 .09031471
0 .7015625 .09044332
.1048766 .7014768 .09075304
.2741068 .7010978 .09454154
.4072749 .7007915 .1018496
.5294185 .7014003 .111883
.6401252 .7063493 .1168943
.7564723 .7104464 .1258312
.8745472 .7158197 .1465212
0 .8653857 .1668598
.00478492 .8653197 .1675593
.1885416 .8651829 .1677969
.3128212 .8651986 .1696332
.4293036 .8660457 .1684143
.5442038 .8673199 .1725786
.6561217 .8687736 .1916709
.7723366 .8701621 .2088567
.8881578 .8712537 .2037862
.1815872 .9924805 .2752974
.215443 .9924449 .2754984
.2831056 .9923061 .2762954
.3714724 .9919335 .2798881
.4679967 .9923593 .2844566
.5720405 .992704 .2866113
.6796173 .992842 .2930445
.7888286 .9931974 .293989
.895916 .994036 .3113408
.1815872 .9924805 .2752974
.215443 .9924449 .2754984
.2831056 .9923061 .2762954
.3714724 .9919335 .2798881
.4679967 .9923593 .2844566
.5720405 .992704 .2866113
.6796173 .992842 .2930445
.7888286 .9931974 .293989
.895916 .994036 .3113408
0 .01141032 .2085935
0 .01033213 .2088293
0 .00530717 .2106945
.2017653 0 .2143269
.3387897 0 .2209266
.4620968 0 .2412634
.5940873 0 .2422981
.7285617 0 .245941
.8579255 0 .2599034
0 .01390779 .2152857
0 .01315979 .2156278
.02181396 0 .216464
.2303575 0 .2189927
.3471659 0 .2289048
.4757854 0 .2317503
.5970667 0 .2361976
.7308462 0 .2482038
.8592346 0 .2608197
0 .1888435 .2112817
0 .1881512 .2117951
.07256869 .184613 .2137527
.2385729 .1877447 .2231443
.3608699 .1915035 .2354908
.4761165 .1979799 .2410163
.6010318 .1993072 .2399531
.7355597 .2026999 .2486029
.8621978 .2134667 .257591
0 .3588045 .2343439
0 .3587943 .2353353
.08851921 .3601394 .2369989
.2512242 .3624146 .2398313
.3717856 .366239 .2417909
.4817486 .3733111 .2402357
.6102765 .3783472 .2411791
.7385278 .3898132 .2464668
.8677741 .3946249 .2542803
0 .525778 .2508337
0 .5261791 .2508339
.119261 .5272592 .2506175
.2619691 .5288813 .2532663
.3805387 .5310385 .2554544
.5004182 .5329993 .2558368
.6236607 .5394196 .2565749
.7474356 .5469279 .2627057
.8675999 .557081 .2743741
0 .7012269 .2668522
0 .7012417 .2672036
.09934061 .7011991 .2679222
.2692897 .7010417 .2691027
.4005967 .7010556 .2687431
.5252573 .7016134 .270047
.6409706 .7050751 .2697308
.7550557 .7104224 .2792473
.873061 .7160022 .2921709
0 .8654597 .3006015
0 .865464 .3009623
.1843397 .8655399 .301581
.3138083 .8651244 .3038393
.4307228 .8656431 .3063632
.5443004 .8672449 .3088321
.6556239 .8683088 .3164596
.7696564 .8695427 .3223448
.8861403 .8709428 .3256735
.1860458 .9921492 .3717855
.2198857 .9921255 .3720462
.2871917 .9920723 .3726726
.3750529 .9918956 .3752754
.4701523 .9920635 .3766942
.5751933 .9923357 .3751474
.6807047 .9928495 .3814064
.789708 .9933918 .3843289
.895483 .9950131 .3964472
.1860458 .9921492 .3717855
.2198857 .9921255 .3720462
.2871917 .9920723 .3726726
.3750529 .9918956 .3752754
.4701523 .9920635 .3766942
.5751933 .9923357 .3751474
.6807047 .9928495 .3814064
.789708 .9933918 .3843289
.895483 .9950131 .3964472
0 .01319795 .3511142
0 .01540145 .3519545
0 0 .3507163
.2229596 0 .3509754
.3478929 0 .3522359
.4752579 0 .3578122
.5928832 0 .371655
.7290436 0 .3797621
.8579059 0 .3879251
0 .01705629 .3550426
0 .0015173 .3547607
.09793354 0 .3535857
.2478293 0 .3539206
.3586153 0 .3552389
.4753817 0 .3556149
.5961872 0 .3706048
.7309051 0 .3793045
.8595998 0 .3888672
0 .1934916 .3569074
0 .1940684 .3568295
.04987486 .1951033 .3570115
.2400272 .1959325 .357616
.3632683 .1962719 .3574897
.4793786 .19779 .3593198
.5990673 .2062168 .3725292
.7356666 .2020716 .3813509
.8647915 .2086263 .3914551
0 .3594109 .3619494
0 .3598644 .3626247
.1003829 .3609606 .3643484
.2529995 .3640815 .3651376
.3789167 .3700071 .3665391
.4864653 .3746476 .3686081
.6108514 .3810211 .3764094
.7400964 .3888666 .3829243
.8688995 .392244 .3912705
0 .5244128 .3806428
0 .5250533 .3809034
.0955377 .5266614 .3815682
.2578693 .5290719 .3828698
.3830749 .5320361 .3852911
.5008281 .5350524 .3858557
.6243369 .5401344 .3859888
.7479963 .5481671 .3908756
.8701546 .5563181 .3999209
0 .7016574 .3934039
0 .7016642 .3930857
.07465776 .701458 .3928985
.2559024 .7008368 .3933316
.3944956 .7008266 .3974858
.5202389 .7017484 .4011957
.6414555 .7044315 .4021726
.7594321 .7087168 .4033222
.8763303 .7149763 .4104794
0 .8660686 .4185391
0 .8659785 .4189223
.1821949 .865761 .4198948
.3157423 .8651801 .4220256
.4361584 .8649259 .4241585
.5467385 .8663098 .4268974
.6568164 .8668889 .4329854
.76845 .8681083 .4366239
.8863328 .8704196 .4412524
.2015786 .9917083 .4719814
.2331475 .9916547 .4723575
.2989413 .9915544 .4730056
.3859501 .991376 .4741583
.4787906 .9916591 .4745173
.5801429 .992284 .4734104
.6859989 .9925892 .4754625
.7947919 .9937486 .4803347
.8966087 .9956135 .4904042
.2015786 .9917083 .4719814
.2331475 .9916547 .4723575
.2989413 .9915544 .4730056
.3859501 .991376 .4741583
.4787906 .9916591 .4745173
.5801429 .992284 .4734104
.6859989 .9925892 .4754625
.7947919 .9937486 .4803347
.8966087 .9956135 .4904042
0 0 .4810095
0 0 .479998
.05959414 0 .4802026
.2452432 0 .4797443
.3703026 0 .4784959
.4840875 0 .479426
.6036591 0 .4826114
.7300376 0 .4982211
.8583715 0 .5128298
0 0 .4832476
0 0 .4833927
.1214429 0 .4832045
.2505873 0 .4825692
.3682462 0 .4808109
.485534 0 .4797351
.6036674 0 .4831722
.7307647 0 .5013099
.860126 0 .5149601
0 .1993767 .4856812
0 .1994301 .485503
.00788589 .1993364 .4855258
.2399604 .1968762 .484493
.3728237 .1964963 .4822595
.4873769 .2004461 .4804738
.6055588 .2003694 .4877505
.7360437 .1994469 .5034242
.8651091 .2054557 .5152073
0 .3747092 .4885795
0 .3750435 .4884162
.01525109 .3755891 .4881931
.2399702 .3758311 .4862714
.3777923 .3749241 .4874789
.4980354 .3750042 .4887432
.6152115 .3785669 .4964846
.7445318 .3830744 .5049714
.8707802 .390145 .5132686
0 .5285854 .4937083
0 .5291276 .4939415
.07208256 .5305048 .4945342
.2515174 .5321577 .4960425
.3836518 .535926 .4989064
.5079119 .5401701 .5036412
.630242 .5413737 .505757
.7504765 .5482728 .5132779
.8709257 .5565141 .5216433
0 .7008147 .5137548
0 .7009379 .5136571
.07185646 .7011072 .5136793
.265424 .7016621 .5140436
.4010531 .7029195 .5157122
.5177534 .7053209 .5185845
.6415343 .7065961 .520253
.7608192 .7099577 .5246795
.8771377 .7144981 .5332131
0 .8666683 .5405475
0 .8666295 .5406899
.181855 .8668376 .5410153
.3155819 .8669053 .5421699
.4366284 .8671877 .5430915
.5480601 .8670623 .5443922
.658883 .8676774 .5458346
.7725995 .8684686 .5463408
.8852888 .8700324 .5514888
.2199379 .9915032 .5731488
.2499986 .9915506 .5734255
.3113373 .991836 .5740553
.3940753 .9919813 .5755517
.4847401 .9921537 .577451
.5853082 .9923353 .5790497
.6882733 .9926894 .5813827
.796097 .9933576 .5856466
.9024853 .9942574 .5922847
.2199379 .9915032 .5731488
.2499986 .9915506 .5734255
.3113373 .991836 .5740553
.3940753 .9919813 .5755517
.4847401 .9921537 .577451
.5853082 .9923353 .5790497
.6882733 .9926894 .5813827
.796097 .9933576 .5856466
.9024853 .9942574 .5922847
0 0 .6140997
0 0 .6142672
.08550274 0 .614234
.2631665 0 .6143246
.3921202 0 .6145821
.5089238 0 .6162379
.6180685 0 .6172806
.7385527 0 .620537
.859814 0 .6296901
0 0 .6169207
0 0 .6171276
.1138015 0 .616917
.2627414 0 .6171946
.3858066 0 .6169497
.504423 0 .6169491
.6197664 0 .6170323
.7402858 0 .6217963
.8602682 0 .6312176
0 .2046252 .6188177
0 .2044888 .6186922
.04782952 .2029204 .6187879
.2463088 .2011563 .6189346
.3803962 .2018805 .6186795
.50559 .199572 .618029
.6223318 .1992816 .6183231
.7412148 .2058564 .6229526
.8646184 .2016152 .631432
0 .3854979 .620151
0 .3856085 .6201698
.06196604 .3848637 .620676
.2529393 .3833913 .6207628
.3814837 .3820337 .6207783
.5011127 .3807255 .6209075
.6230125 .3837179 .6224735
.74609 .3843874 .6263097
.8695359 .3894731 .636368
0 .5414622 .6225846
0 .541436 .6229712
.05747311 .5414733 .6239089
.2516655 .5413395 .6255462
.3879375 .5432125 .6271573
.5110697 .5462112 .6293007
.6317146 .5437491 .6309095
.7563059 .5458257 .6326694
.8746324 .5588453 .6394743
0 .7012247 .6339742
0 .7012709 .6338508
.08556633 .7013246 .6336919
.270596 .7014881 .6332759
.3998716 .7020444 .6337262
.5216841 .7051217 .6363661
.6446645 .7081754 .6386409
.7632676 .7114474 .6427755
.8808963 .7154067 .6530014
0 .8657881 .6524695
0 .8658255 .6528307
.1847559 .8659482 .6537277
.3166313 .866389 .6551698
.4384908 .8676745 .657857
.5517151 .8688706 .6607971
.6634788 .8685025 .6616966
.7743087 .8691996 .6624011
.8832485 .8706893 .6668524
.2204877 .9915608 .6782271
.2503267 .9916573 .6785119
.3113592 .9918987 .6794735
.3961937 .9923822 .681856
.48509 .9939361 .6830439
.5824053 .9945548 .6840299
.6867499 .9943456 .6867389
.7975354 .9932466 .691533
.9072692 .993422 .6950114
.2204877 .9915608 .6782271
.2503267 .9916573 .6785119
.3113592 .9918987 .6794735
.3961937 .9923822 .681856
.48509 .9939361 .6830439
.5824053 .9945548 .6840299
.6867499 .9943456 .6867389
.7975354 .9932466 .691533
.9072692 .993422 .6950114
0 0 .745983
0 0 .7458763
.1541116 0 .7455751
.2962686 0 .7452127
.412056 0 .7458921
.5203654 0 .7472538
.6341774 0 .7488264
.750021 0 .7484426
.8678581 0 .7509064
0 0 .7482716
0 0 .7482087
.1413173 0 .7480258
.2839154 0 .7479774
.4025662 0 .7482109
.5172648 0 .7487122
.6330085 0 .7487043
.7497653 0 .7487335
.8686437 0 .7511947
0 .2029614 .7499558
0 .2027326 .7498673
.05567004 .201223 .7496918
.2554277 .2004716 .7497291
.394021 .1996015 .7494496
.5151169 .1985798 .7494667
.6335198 .2049122 .7493357
.7490076 .211227 .7500263
.8690541 .2133279 .7526392
0 .3890371 .7498138
0 .3888758 .7498273
.08753198 .3882058 .7501717
.2604385 .3872845 .7506571
.3916914 .3854245 .7507933
.5147827 .3859897 .7507971
.6334578 .3863016 .7517953
.7514669 .3878967 .7514729
.873564 .3891013 .7551572
0 .5510896 .753031
0 .5510568 .7530555
.02339905 .5510957 .7531185
.2458317 .5512205 .7534683
.3926259 .5523818 .753968
.5175902 .5531017 .75391
.6373737 .5524299 .7543205
.7576588 .5528812 .7548401
.8746411 .5599257 .7581793
0 .7050284 .755889
0 .7049593 .7559521
.1233463 .7052126 .7562808
.2764857 .7062134 .7569795
.4081356 .707809 .7569687
.5314683 .709273 .7579477
.6465824 .7126229 .7602891
.7642934 .7137662 .7605326
.8810367 .7177448 .7652085
0 .8649585 .7643724
0 .8649457 .7645119
.1829722 .8648793 .7648293
.3156153 .8654762 .7661647
.4391492 .8656731 .7679
.5580496 .8666798 .7690963
.6694695 .8684455 .7714332
.7759354 .8704295 .7737992
.8847469 .871938 .7762119
.2186388 .9908288 .7817473
.247661 .9910019 .7817677
.3079741 .9915125 .7820592
.3895244 .9924259 .7833763
.4808919 .9937658 .7856472
.582113 .994886 .7884197
.6920931 .9954491 .792699
.8018249 .9938508 .7959807
.9071186 .9935704 .7994338
.2186388 .9908288 .7817473
.247661 .9910019 .7817677
.3079741 .9915125 .7820592
.3895244 .9924259 .7833763
.4808919 .9937658 .7856472
.582113 .994886 .7884197
.6920931 .9954491 .792699
.8018249 .9938508 .7959807
.9071186 .9935704 .7994338
0 0 .8753662
0 0 .8751763
.168187 0 .8750118
.2954175 0 .8752063
.4146075 0 .8756053
.5366458 0 .8750831
.6503142 0 .8761318
.7625042 0 .8761964
.8766339 0 .8768297
0 0 .8772177
0 0 .8771887
.1442961 0 .8771379
.2819644 0 .8772761
.4041252 0 .8769002
.5325589 0 .875856
.6484945 0 .8761157
.7626896 0 .8759292
.877632 0 .8771791
0 .2151629 .8769304
0 .2150629 .8767733
.09191924 .2155663 .8766513
.26813 .2157097 .8766448
.3990161 .2139412 .8767551
.526675 .2144714 .8767589
.6481096 .2126238 .8762323
.7646658 .2234073 .8763051
.877457 .2307093 .8778584
0 .4015884 .876896
0 .4014977 .8770237
.08413216 .4009906 .8771951
.2659681 .3988411 .8776115
.4031751 .3977368 .8782412
.5259441 .3976136 .8780077
.6445011 .4005049 .8774902
.7663737 .4000161 .8769061
.8796321 .4034961 .8780795
0 .5604792 .8790329
0 .5605516 .879026
.05583313 .5612722 .8789914
.2693571 .563005 .878844
.4068874 .564782 .8786528
.5307573 .5673161 .8773696
.6530404 .5652455 .8771982
.7668129 .5658517 .8774829
.881761 .5651872 .8794197
0 .7184572 .878985
0 .7185252 .8789347
.1721599 .7186977 .8788069
.3026525 .7189406 .8786725
.4246886 .7190633 .8785822
.540792 .7197987 .8791864
.6571538 .7217453 .8805063
.7735711 .7216241 .8821825
.8848395 .7231653 .883315
.04761082 .8683012 .8838656
.1299091 .8683148 .8838797
.2340558 .8684027 .8839375
.3441666 .8686573 .8842192
.4584989 .8685112 .8846296
.5676324 .8688868 .8847221
.6695104 .8704614 .8849602
.7768029 .8733855 .886021
.8910668 .8753203 .8883882
.1984001 .9921969 .8922383
.2320021 .9922393 .8924701
.2992639 .9923581 .8928882
.3859234 .9926199 .8935075
.4828044 .9930443 .8940837
.5866139 .9933522 .8944969
.6953907 .9937363 .8968132
.8030525 .9945979 .8993813
.9055185 .9969993 .9013517
.1984001 .9921969 .8922383
.2320021 .9922393 .8924701
.2992639 .9923581 .8928882
.3859234 .9926199 .8935075
.4828044 .9930443 .8940837
.5866139 .9933522 .8944969
.6953907 .9937363 .8968132
.8030525 .9945979 .8993813
.9055185 .9969993 .9013517
