Camera r&d/Filters/1999-modified-2.cube
# 3D LUT of size 33x33x33 converted by Filestar.
#   Input:
#     color space: sRGB
#     white point: default (D65)
#     transfer function: default (sRGB)
#   Output:
#     color space: sRGB
#     white point: default (D65)
#     transfer function: default (sRGB)
#   Contrast: +45
#   Blacks: -26
#   Vibrance: -6
#   Saturation: -4
LUT_3D_SIZE 5
.01832723 .02552201 0
.194361 0 0
.419526 0 0
.6439752 0 0
.8740298 .05768435 .06290124
.01143041 .2706631 0
.2117493 .2712824 0
.4229382 .2764163 0
.6454359 .2885069 0
.8759288 .3042551 .07372963
.1070469 .5696432 .03764787
.2399386 .5701183 .04105768
.4413882 .5710808 .05587635
.65661 .5773946 .08634745
.8753455 .588472 .1370868
.2216835 .8702644 .2029887
.3086596 .8700174 .2050774
.478763 .8710603 .2076708
.6785262 .8732039 .2249097
.8911072 .8763239 .2301766
.3114499 .9902427 .3044394
.3721944 .9899996 .3076082
.5154387 .9902709 .3118235
.7022893 .9909568 .319743
.8998854 .9929991 .3367622
0 .00025809 .1870735
.2006004 0 .1894842
.4166749 0 .1949185
.6392779 0 .2111838
.8723796 .07375316 .2310618
.01498526 .2685739 .1893012
.214274 .2716463 .1924082
.4198732 .2776651 .2045333
.6431257 .2900653 .211726
.8743876 .3075622 .2347195
.1130101 .5691218 .2280834
.2399663 .5696893 .2302427
.4387477 .5701586 .2345929
.6556178 .575583 .236231
.8747593 .5874045 .264029
.22752 .8701459 .3021701
.315552 .8695769 .3048704
.4824817 .870738 .3079393
.6791156 .8725103 .3187067
.8894109 .8759217 .324853
.3176276 .990168 .3743593
.376749 .9900458 .376267
.5171072 .9903402 .3774641
.7034538 .9908419 .3834486
.9000893 .9934693 .401525
0 0 .412913
.2065292 0 .4123957
.4224606 0 .4135876
.6358078 .02466828 .4267011
.8720847 .09552961 .4394563
.00521025 .2776352 .4179924
.2097924 .2806057 .4174264
.4260585 .2821758 .4179888
.6392919 .2978517 .4299299
.8752068 .3148854 .4466053
.1277131 .5676145 .4359772
.2526096 .5686256 .4377508
.4410529 .5718023 .442422
.6557526 .5753506 .445426
.874405 .5912562 .4603831
.2491191 .870488 .4800557
.3294255 .870325 .4819942
.4897603 .8706179 .4844612
.6822769 .8714604 .4876866
.8901218 .8749266 .4963079
.3339749 .9900518 .5209705
.3917132 .9900293 .5225073
.5273219 .9904091 .5231235
.7086622 .9909443 .5240995
.9015519 .9945692 .5352424
.03267732 0 .646742
.2140469 0 .6468319
.4309136 0 .6461977
.6505504 .02634274 .6465064
.8709869 .09452073 .6548738
.09723841 .2933828 .6467926
.231914 .2948025 .6467493
.4331879 .2982408 .6459744
.6503275 .3011938 .6473402
.8725463 .316704 .6563771
.1252413 .5776193 .6509525
.2513428 .5780613 .6521242
.4527053 .580012 .6547497
.6582265 .5810392 .6551639
.877428 .5940711 .6651444
.2481553 .8699333 .6760743
.3293597 .8704122 .6774511
.4942793 .872247 .6816533
.688634 .872776 .6838926
.8862973 .8757288 .6881268
.3309994 .9913687 .7005518
.3896698 .9917631 .7012624
.5251868 .9937726 .7046837
.7052766 .9938619 .7086146
.9097244 .9931657 .7147934
.1001171 .05025002 .8820485
.2427496 .05938794 .8818901
.4492173 .07619251 .8816247
.6683278 .09625486 .8806771
.8832898 .1356936 .8817238
.1326042 .3120847 .8820361
.2581476 .3127885 .8820027
.4559546 .3166905 .8814356
.6703197 .3234636 .8800024
.8827557 .3356965 .8814874
.1702761 .5976362 .882306
.2800066 .5985788 .8821524
.4716125 .6005765 .881361
.676783 .5994324 .8810748
.8845962 .60014 .8829597
.2786301 .8735856 .8878061
.3510759 .8735856 .8881189
.5110556 .8732452 .8887546
.6891078 .8760588 .8892266
.8955841 .8807383 .8928992
.3156646 .99133 .8969671
.3786354 .9915931 .8974696
.5245422 .9924011 .8985696
.7134472 .9936538 .9017165
.9090364 .9972472 .9056222
