Camera r&d/Filters/1999.cube
# 3D LUT of size 33x33x33 converted by Filestar.
#   Input:
#     color space: sRGB
#     white point: default (D65)
#     transfer function: default (sRGB)
#   Output:
#     color space: sRGB
#     white point: default (D65)
#     transfer function: default (sRGB)
#   Contrast: +45
#   Blacks: -56
#   Vibrance: -6
#   Saturation: -4
LUT_3D_SIZE 33
.02168799 .03067625 0
.02141184 .03035142 0
.02156583 .03009497 0
.02213814 .02983554 0
.02290798 .02948638 0
.02389498 .02903461 0
.02511392 .02846748 0
.02657166 .02778836 0
.0303826 .0267722 0
.04244211 .02501768 0
.05602074 .02160552 0
.0934599 .01046833 0
.1586731 0 0
.2062912 0 0
.2476414 0 0
.283196 0 0
.3239238 0 .00141364
.3631893 0 .0054734
.3985583 0 .00612917
.43146 0 0
.4644408 0 0
.4974976 0 0
.5283064 0 0
.5593174 0 0
.591262 0 0
.6201487 0 0
.6500819 0 .00539351
.6834084 0 .00964213
.7175633 0 .01136969
.7500057 0 .0128902
.7826352 0 .01221282
.8151655 0 .01211167
.845823 0 .01035445
.0218247 .03016362 0
.02195939 .02999013 0
.02234566 .02981858 0
.02292046 .02955818 0
.02369035 .02920993 0
.02467449 .02876569 0
.02589171 .02820087 0
.02701192 .02760129 0
.03250223 .02636871 0
.04405075 .02484959 0
.05207657 .02228701 0
.1049635 .00531694 0
.1659067 0 0
.2113118 0 0
.2516241 0 0
.2873254 0 0
.327968 0 .00234227
.3665091 0 .00608745
.4012747 0 .00656544
.434007 0 0
.4670918 0 0
.4983082 0 0
.5285488 0 0
.5596347 0 0
.5908933 0 0
.6197023 0 0
.6497376 0 .00455698
.6835274 0 .00735579
.7175072 0 .00909582
.7502314 0 .00919504
.7830162 0 .00840407
.8154175 0 .00802808
.8459994 0 .00601608
.02257923 .02977104 0
.02288108 .02964929 0
.02323057 .02950607 0
.02380321 .02924592 0
.02457413 .02889713 0
.02555814 .0284531 0
.02665293 .02792622 0
.02729238 .02742378 0
.0347682 .02589295 0
.03580329 .02644565 0
.04732235 .02298421 0
.1167209 0 0
.1733595 0 0
.2168118 0 0
.2560089 0 0
.2918968 0 0
.3320077 0 .0024008
.3702552 0 .00671692
.4043186 0 .00714747
.4366254 0 0
.4681062 0 0
.4982951 0 0
.5285177 0 0
.5596092 0 0
.5901644 0 0
.6193771 0 0
.6494398 0 .00292612
.6836621 0 .00476979
.7176594 0 .00454624
.7506283 0 .00480765
.7834469 0 .00409596
.8155779 0 .00314105
.8462479 0 .00070712
.02365226 .02919777 0
.02407332 .02911727 0
.0245452 .02902308 0
.02507139 .02879815 0
.02584423 .02844966 0
.02653579 .02805915 0
.02706774 .0276396 0
.02852032 .02681507 0
.02831697 .027761 0
.02888772 .02808679 0
.0605024 .01957943 0
.131856 0 0
.1830411 0 0
.22487 0 0
.2630242 0 0
.2990281 0 0
.3385784 0 .00311795
.375314 0 .00683003
.4059834 0 .00393524
.436552 0 .00038289
.4681728 0 .00022461
.4987439 0 0
.5292853 0 0
.5592031 0 0
.5897096 0 0
.6189174 0 0
.6494186 0 0
.6839774 0 0
.7181551 0 0
.7511887 0 0
.7840224 0 0
.815811 0 0
.8466064 .00085871 0
.02496785 .02838922 .00044499
.02539042 .02830795 .00006387
.02545413 .02816716 .00040722
.02541217 .02794525 .00115744
.02542361 .0276009 .00212108
.0254833 .02713384 .00332812
.02161578 .02785777 .00407873
.01703392 .02983511 .00298216
.01368449 .03197683 .00124924
.01976271 .02994803 .00025978
.08913512 .01193745 0
.1496238 0 0
.1953392 0 0
.2361929 0 0
.2709716 0 0
.3058516 0 0
.3427151 0 .00085938
.3766288 0 .00235935
.406582 0 0
.43781 0 0
.4696802 0 0
.499433 0 0
.5286019 0 0
.5586882 0 0
.5897378 0 0
.6193351 0 0
.650107 0 0
.6845261 0 0
.718735 0 0
.751914 .00942243 0
.7847832 .03111882 0
.8161586 .06237346 0
.8470873 .08212271 0
.02353611 .02697876 .00809066
.02269323 .02711128 .00840127
.02014223 .02778831 .008455
.01697164 .02873112 .00794608
.01226105 .03081815 .00716498
.00551249 .03475568 .00594059
.00243824 .03948306 .00413904
0 .04519385 .00209526
0 .04837535 .00083555
.04439884 .0454634 0
.1147482 .029829 0
.1654805 .01338248 0
.2070212 .00208248 0
.2425285 0 0
.2740044 0 0
.3097656 0 0
.3450061 0 0
.3775549 0 0
.4077885 0 0
.4382026 0 0
.468563 .0044266 0
.4984024 .01428062 0
.5282174 .02613708 0
.5591238 .03838881 0
.5896403 .04583277 0
.6197534 .05563278 0
.651274 .06723014 0
.6853038 .07677303 0
.7195274 .08502322 0
.7528847 .0958968 0
.7856959 .1075484 0
.8166385 .1252522 0
.8477002 .1377506 0
0 .07380492 .00344723
0 .07470226 .00302574
0 .0756016 .00252787
0 .07684182 .00182796
0 .07838174 .00089405
0 .08118365 0
0 .08455094 0
0 .08503816 0
0 .08577403 0
.08346658 .07717796 0
.1365398 .07029075 0
.1776192 .06745218 0
.2121167 .0685978 0
.2446716 .07082947 0
.2792556 .07510067 0
.3134694 .08339538 0
.3461816 .08705888 0
.3775553 .08918261 0
.4079219 .09387138 0
.4387034 .09964953 0
.4687474 .1085785 0
.4981397 .1172402 0
.5278984 .1224092 0
.5592486 .1267286 0
.589699 .1301679 0
.6198741 .1328969 0
.6526739 .1364566 0
.6863851 .1408013 0
.720531 .1454708 0
.7541351 .1523478 0
.7864864 .1626004 0
.8173144 .1748188 0
.8484539 .1846767 0
0 .1227905 0
0 .1239229 0
0 .1251915 0
0 .1269867 0
0 .1293576 0
0 .1320319 0
0 .1302325 0
0 .1317667 0
.03536689 .1291454 0
.09320731 .1283447 0
.1355668 .1301718 0
.1747037 .1326285 0
.2093298 .135552 0
.2456564 .1378482 0
.2815089 .1409048 0
.3145329 .1452848 0
.3452022 .1495004 0
.3776922 .1518809 0
.4090559 .1564132 0
.4399353 .160722 0
.4700072 .1654638 0
.4992165 .1712219 0
.5282395 .1773001 0
.559797 .1803004 0
.5898172 .1842036 0
.6201758 .1878473 0
.6540212 .1913027 0
.6876683 .1943457 0
.7213795 .1978139 0
.7553689 .2008972 0
.787432 .2098836 0
.8181217 .2193264 0
.8493926 .227376 0
0 .1773216 0
0 .1781636 0
0 .1790828 0
0 .1802953 0
0 .181586 0
0 .1821319 0
0 .1815667 0
0 .1808944 0
.04062551 .1808624 0
.09785416 .1809993 0
.1371447 .1825823 0
.1711886 .1851116 0
.2112992 .1876695 0
.2479534 .1910041 0
.2835683 .1927424 0
.3167594 .1949268 0
.3483309 .1973081 0
.3791432 .2003026 0
.4107851 .2034951 0
.4414392 .2074544 0
.4712459 .2118157 0
.500365 .216253 0
.5298129 .2212788 0
.5598807 .2261427 0
.5900638 .2302699 0
.6211553 .2334357 0
.6559452 .2364586 0
.6892552 .2405083 0
.7224423 .2444105 0
.7557814 .2495342 0
.7882162 .2557314 0
.8187574 .263488 0
.8502987 .2693551 0
0 .2324766 0
0 .2319096 0
0 .231539 0
0 .2309608 0
0 .2301204 0
0 .2291351 0
0 .228609 0
0 .2285646 0
.06067936 .2284184 0
.1091748 .2288432 0
.145757 .2298688 0
.1829516 .2315234 0
.2205591 .2338879 0
.2540725 .2365485 0
.2875304 .239325 0
.3204797 .2410951 0
.3523631 .2426692 0
.383142 .2447514 0
.4118234 .248492 0
.4432755 .2517395 0
.4730042 .2551883 0
.5018687 .2597349 0
.5317219 .2641883 0
.5613822 .2672012 0
.591241 .271023 0
.6230119 .2751758 0
.6577683 .2796703 0
.6911395 .2833653 0
.7237058 .2880883 0
.7563921 .293093 0
.7888055 .2982555 0
.8198536 .3040554 0
.8516333 .3082278 0
0 .2756584 0
0 .2754177 0
0 .2751479 0
0 .2747606 0
0 .2744856 0
0 .2743548 0
0 .2740838 0
0 .273602 0
.07023076 .2737823 0
.1193125 .2742302 0
.158038 .275456 0
.1940897 .2766685 0
.228071 .2778787 0
.2602996 .2793496 0
.2924684 .2814136 0
.3255646 .2836133 0
.3572551 .2857352 0
.3882197 .2873626 0
.4164449 .2902635 0
.4436763 .2941701 0
.4753426 .297161 0
.5050136 .3012376 0
.5338371 .3047099 0
.5636078 .3071784 0
.5934449 .3102675 0
.62645 .3137452 0
.660594 .3183728 0
.693563 .323813 0
.7257507 .3287995 0
.7577652 .333754 0
.78992 .3380798 0
.8219116 .3409899 0
.853766 .343256 0
0 .3192597 0
0 .3192659 0
0 .3192623 0
0 .3191733 0
0 .319028 0
0 .3187778 0
0 .3187801 0
.01349442 .3193207 0
.08262637 .3197983 0
.1268327 .3200592 0
.1664253 .3202159 0
.2024747 .3202013 0
.2357218 .3202694 0
.267372 .3210534 0
.2979328 .3220761 0
.3296288 .3236338 0
.3619958 .3258747 0
.3932038 .3281254 0
.4211147 .3305383 0
.4485105 .3334822 0
.476447 .3376193 0
.5078059 .340731 0
.5369593 .3440666 0
.5663071 .3473282 0
.5961162 .3500858 0
.6303132 .3520059 0
.6637163 .3566063 0
.6966813 .3618932 0
.7287532 .3670102 0
.7609509 .3707828 0
.7923502 .3734843 0
.8248441 .3749309 0
.856702 .3780725 0
0 .3619883 0
0 .3619966 0
0 .3620705 0
0 .3622265 0
0 .3625638 0
0 .3628979 0
0 .3632781 0
.04467704 .3636489 0
.1050124 .3640248 0
.1482211 .3642318 0
.1848117 .3642338 0
.217761 .3642202 0
.2485725 .3637979 0
.2782288 .3635003 0
.3067468 .3635271 0
.336801 .3643066 0
.3656525 .365611 0
.3967628 .3675067 0
.4262737 .3700463 0
.4542117 .3728943 0
.4823822 .3762128 0
.5105385 .3800558 0
.5398465 .3831071 0
.5686895 .3865726 0
.6001418 .3901794 0
.6333801 .3927277 0
.6672422 .3949376 0
.7002624 .3992202 0
.732839 .4032994 0
.7649428 .4058791 0
.79588 .4083931 0
.8280107 .4101579 0
.8598287 .41221 0
0 .4030783 0
0 .4033138 0
0 .4035646 0
0 .4039196 0
0 .4043114 0
0 .4044594 0
.01964419 .4046395 0
.08501569 .4048545 0
.1294304 .405003 0
.1654894 .4050264 0
.1993861 .4052365 0
.2312351 .4054729 0
.261634 .4056313 0
.2910582 .4056607 0
.3191717 .4056862 0
.3478938 .4059305 0
.3760621 .4063756 0
.4033041 .4070349 0
.4322126 .4089403 0
.4598141 .4122192 0
.4870735 .4151822 0
.5157333 .4178674 0
.5435053 .4214271 0
.5724772 .4249978 0
.6045349 .4287001 0
.6370701 .4318328 0
.6706101 .4339095 0
.7044114 .4358544 0
.7371734 .4385021 0
.7689418 .4414429 0
.7999059 .4435234 0
.831046 .4457128 0
.8625525 .4479296 0
0 .4434954 0
0 .4435675 0
0 .4436489 0
0 .4437657 0
0 .4441501 0
.02002165 .4446787 0
.0727933 .4451576 0
.1156963 .4453497 0
.1516252 .445456 0
.1843714 .4456248 0
.2153736 .4459293 0
.2447051 .4462036 0
.2722065 .4463564 0
.3006184 .4468926 0
.3285051 .4474995 0
.3558562 .4480575 0
.3839417 .4486093 0
.4126316 .4490974 0
.4396324 .4495227 0
.4661446 .4506191 0
.4930229 .4527301 0
.5215497 .4559188 0
.549105 .4589933 0
.5793929 .4623629 0
.6112772 .4659753 0
.6427114 .4697958 0
.6749958 .4718094 0
.7087511 .4733855 0
.7424979 .4748715 0
.7731955 .4775729 0
.8038739 .4794838 0
.8346553 .4813904 0
.8647565 .4842706 0
0 .4850511 0
0 .4851421 0
0 .4852293 0
0 .4853417 0
0 .4854926 0
.00957929 .4856859 0
.07316405 .4859331 0
.1181304 .4862291 0
.1520607 .4869678 0
.1863084 .4871904 0
.2189628 .4873509 0
.2501971 .4875317 0
.280464 .4877335 0
.3097078 .4879799 0
.3368084 .4884941 0
.3626252 .4888256 0
.3912929 .4893151 0
.4200573 .4898276 0
.4475162 .4906448 0
.4738313 .4916411 0
.5017889 .4922417 0
.5288848 .4940006 0
.5580088 .4983864 0
.5877007 .5018849 0
.6184718 .5046724 0
.6498779 .5068123 0
.6813093 .508283 0
.7138311 .5103834 0
.7464536 .5120826 0
.778313 .513215 0
.8083782 .5151126 0
.8374765 .5175301 0
.8663189 .5207324 0
0 .5278268 0
0 .5279256 0
0 .5280374 0
0 .5281978 0
0 .5284193 0
0 .5287018 0
.01123402 .5290319 0
.0820067 .5292567 0
.1292246 .5294902 0
.1685242 .5297665 0
.204481 .5301058 0
.2366879 .5306836 0
.2691431 .5309194 0
.3013021 .5310028 0
.3331773 .5311764 0
.3630535 .531617 0
.3923688 .5320378 0
.421575 .5328941 0
.4498574 .5332301 0
.4789352 .5337583 0
.5082551 .5342203 0
.5378372 .5354291 0
.5662084 .5371789 0
.5961814 .5396249 0
.626148 .5424486 0
.6555041 .5446191 0
.6856821 .5463557 0
.7177997 .5483731 0
.7491426 .550235 0
.7798191 .5520476 0
.8093624 .5539767 0
.8384415 .5566759 0
.8672965 .5595782 0
0 .5730259 0
0 .5730882 0
0 .5731374 0
0 .5732085 0
0 .5733039 0
0 .5734481 0
0 .5736639 0
.06004111 .5739223 0
.1157534 .5746916 0
.1582473 .5749587 0
.1968033 .5750285 0
.2326615 .575033 0
.2664279 .5750393 0
.2987288 .5750582 0
.3298576 .5752161 0
.3597377 .5755225 0
.3896884 .5756848 0
.4187437 .5760495 0
.4484048 .5763687 0
.4788105 .5768526 0
.5112473 .5778487 0
.5429667 .5791271 0
.5729899 .5803609 0
.6023057 .5813974 0
.6309384 .5826364 0
.6608385 .5852518 0
.689415 .5870333 0
.7195587 .5883786 0
.7503377 .5899606 0
.7809342 .5912101 0
.8107814 .5935237 0
.8397838 .5961009 0
.8691533 .5984088 0
0 .6164776 0
0 .6164783 0
0 .6164792 0
0 .6164935 0
0 .6165248 0
0 .6165308 0
0 .6164999 0
.07798878 .6164629 0
.1291591 .6164321 0
.169753 .6164751 0
.2062821 .6165406 0
.2411492 .6165358 0
.2740572 .6166213 0
.3056564 .6167757 0
.3354826 .6172043 0
.363985 .6178125 0
.393037 .6182155 0
.4227806 .6185224 0
.4529119 .6186531 0
.4855909 .6188998 0
.5165012 .6195413 0
.5468315 .6208012 0
.5771357 .6220254 0
.6057143 .6230845 0
.6339174 .624145 0
.661831 .6251802 0
.6902694 .6265475 0
.7203556 .6274948 0
.7512645 .6288893 0
.7817703 .630748 0
.8122333 .6330076 0
.8422911 .6350183 0
.8732693 .6362414 0
0 .6593527 0
0 .6593393 0
0 .6593241 0
0 .6593021 0
0 .6592728 0
0 .6592354 0
0 .6591892 0
.06894242 .659134 0
.1251313 .6590691 0
.1688058 .6589942 0
.2072193 .6589091 0
.2427189 .6588131 0
.2774387 .6586699 0
.3099678 .6586275 0
.3409012 .6588246 0
.3703965 .659184 0
.4006327 .6596545 0
.4306756 .6602384 0
.4603238 .6608228 0
.4903592 .6611601 0
.5205747 .6613104 0
.5515562 .6619679 0
.5811598 .6627726 0
.6096787 .6638826 0
.637992 .6649618 0
.6660438 .6659241 0
.6949671 .6669316 0
.7236845 .6677059 0
.7540046 .6689979 0
.7843025 .6711578 0
.8142805 .6728637 0
.8446417 .6739461 0
.8753174 .6754559 0
0 .7017673 0
0 .7017552 0
0 .7017418 0
0 .7017223 0
0 .701696 0
0 .7016643 0
0 .7016262 0
.05400331 .7015805 0
.118209 .7015249 0
.1650258 .7014589 0
.2053453 .7013839 0
.2422217 .7012993 0
.2769735 .7012048 0
.3107923 .7011046 0
.3437974 .7010683 0
.3766183 .7010065 0
.4088519 .7009538 0
.4399539 .7010024 0
.4701519 .7010981 0
.4979678 .7019261 0
.5266047 .7026969 0
.5556274 .7035363 0
.5845764 .7043778 0
.6137497 .7052866 0
.6423583 .7062359 0
.671656 .7071494 0
.7008587 .7081403 0
.7296386 .7093763 0
.7586471 .7104648 0
.7868651 .7114131 0
.8170856 .7122817 0
.8469474 .7142572 0
.8766414 .7161098 0
0 .7436491 0
0 .7436447 0
0 .7436401 0
0 .7436332 0
0 .743624 0
0 .7436122 0
0 .7435977 0
.05921949 .7435805 0
.1211702 .7435576 0
.1672166 .7435284 0
.2076062 .7434804 0
.245733 .7433834 0
.2813495 .7432821 0
.3142482 .7432938 0
.3471952 .7433343 0
.3798831 .7433917 0
.4124238 .7434812 0
.4445633 .7435901 0
.4739455 .7435898 0
.5035626 .7436602 0
.5335276 .7437041 0
.5629221 .744172 0
.5907954 .7456552 0
.6187867 .7471948 0
.647917 .7481604 0
.6761385 .7489408 0
.7042947 .7498474 0
.7323893 .7508143 0
.7622268 .7517119 0
.7913648 .7523679 0
.8202227 .7529352 0
.8506061 .7534974 0
.8800812 .7550117 0
0 .7855768 0
0 .7855876 0
0 .7855999 0
0 .7856121 0
0 .7856206 0
0 .7856312 0
.0111389 .7856443 0
.09156334 .7856615 0
.1406303 .7857146 0
.1815234 .7857764 0
.2196887 .7858046 0
.2558077 .7858211 0
.2876625 .785689 0
.3190719 .7858307 0
.3497892 .7859972 0
.3805323 .7861411 0
.4113745 .7862545 0
.4418133 .7863774 0
.4719275 .7865097 0
.5022786 .7865056 0
.533378 .7865593 0
.5649294 .7866666 0
.5952379 .7870111 0
.6255795 .7874028 0
.6539386 .788286 0
.681803 .7895197 0
.7093216 .7909114 0
.7348841 .7927964 0
.7633122 .7937836 0
.7945143 .7935817 0
.8258699 .7936536 0
.8550746 .7937436 0
.882032 .7954729 0
0 .8269524 0
0 .8269664 0
0 .8269823 0
0 .8270051 0
0 .8270308 0
0 .8270523 0
.04803307 .8270791 0
.1081425 .8271108 0
.152685 .8271441 0
.1918178 .8271367 0
.227809 .827128 0
.2619019 .8270842 0
.2946877 .8270199 0
.3250445 .8271644 0
.3548721 .8273151 0
.384331 .8274795 0
.4140722 .8275985 0
.4448897 .8277003 0
.4761471 .8277348 0
.506803 .8277608 0
.5380019 .8277383 0
.5678691 .8280019 0
.5975189 .8283996 0
.6262923 .8288024 0
.6551843 .8292247 0
.6845246 .8297153 0
.7134678 .8305356 0
.7411035 .8317835 0
.7705873 .832375 0
.8010482 .8319561 0
.8304425 .8318521 0
.8589489 .8327007 0
.8868676 .8336884 0
0 .8659316 0
0 .8659369 0
0 .8659428 0
0 .8659372 0
0 .8659257 0
.05672112 .865919 0
.1063871 .8659034 0
.1464378 .8658844 0
.1824593 .8658624 0
.2161947 .8658403 0
.2482766 .8658303 0
.2795621 .865821 0
.310811 .8659309 0
.3402924 .8662048 0
.3694236 .8664815 0
.3983884 .8667498 0
.4268752 .8669988 0
.4564608 .8670917 0
.4855559 .8672448 0
.514038 .8674834 0
.5437504 .8676526 0
.5729917 .8678452 0
.6009644 .8682979 0
.6283541 .8687925 0
.6563129 .8692984 0
.6847501 .8698236 0
.7138224 .8701723 0
.7437168 .8702002 0
.7750763 .8696929 0
.8046429 .8697432 0
.8327491 .8703305 0
.8611804 .8711306 0
.8899649 .8717944 0
0 .9050719 0
0 .9050742 0
0 .9050771 0
.03724651 .9050813 0
.08018274 .9050783 0
.116302 .9050617 0
.1497032 .9050414 0
.1836373 .9049525 0
.2139119 .9049491 0
.2437885 .9049454 0
.2733754 .9049411 0
.3024794 .9049391 0
.3300253 .9051086 0
.3574663 .9053778 0
.3844482 .9056543 0
.4108123 .9060135 0
.43734 .9063802 0
.463811 .9067948 0
.4920868 .9070851 0
.521014 .9073154 0
.5490081 .907508 0
.5765699 .9077054 0
.6032985 .9079712 0
.6300868 .9083334 0
.6579602 .908596 0
.6862136 .9089105 .00509503
.7147887 .9091599 .01575396
.7450539 .9088066 .01965275
.77516 .908621 .0184593
.8044997 .9087989 .00760148
.8348234 .9089866 .00722549
.8642868 .9092916 .007238
.892849 .9098912 .00265971
.07422443 .9453835 0
.08877642 .9453884 0
.1030834 .9453941 0
.1208898 .9454023 0
.1414263 .9454132 0
.1638857 .9454216 0
.1877059 .9454275 0
.2139084 .9454222 0
.2402426 .9454169 0
.2660272 .9454166 0
.2922177 .9453972 0
.3185351 .945352 0
.3450453 .9454023 0
.3703093 .9457163 0
.395999 .9459853 0
.421916 .9462458 0
.4484989 .946477 .00545398
.4751906 .946725 .01392952
.501688 .946952 .02398721
.5282316 .9470983 .03794513
.5551689 .9471468 .05134278
.5822916 .9470138 .06199288
.6095 .9469323 .07287044
.636737 .9469673 .08454955
.6642594 .9470338 .09525501
.6936129 .9465327 .1004953
.722425 .9462028 .1022473
.7506189 .9464218 .1022017
.7791694 .9469333 .100704
.8076194 .9473526 .1000764
.8367009 .9475259 .1017807
.8671457 .9472339 .1055462
.8968681 .9472753 .1121144
.156174 .9841129 .1244879
.1634004 .984114 .1247241
.1711929 .9841154 .1249919
.1817527 .9841172 .1253725
.194971 .9841196 .125883
.2105279 .9841232 .1265315
.2280726 .9841269 .1273246
.2472646 .9841304 .128263
.2677709 .9841089 .1292492
