Camera r&d/Filters/1999-modified-2.cube
# 3D LUT of size 33x33x33 converted by Filestar.
#   Input:
#     color space: sRGB
#     white point: default (D65)
#     transfer function: default (sRGB)
#   Output:
#     color space: sRGB
#     white point: default (D65)
#     transfer function: default (sRGB)
#   Contrast: +45
#   Blacks: -26
#   Vibrance: -6
#   Saturation: -4
LUT_3D_SIZE 33
.01832723 .02552201 0
.02021961 .02681698 0
.02314226 .02813828 0
.03085971 .02622828 0
.05319087 .02111248 0
.08961811 .01185061 0
.1258686 0 0
.1614858 0 0
.194361 0 0
.2284828 0 0
.2587538 0 0
.2874663 0 0
.3151747 0 .00016268
.3416007 0 .00123489
.3672979 0 0
.3927575 0 0
.419526 0 0
.4475211 0 0
.4754266 0 0
.5034689 0 0
.5319535 0 0
.5605051 0 0
.5893282 0 0
.6168898 0 0
.6439752 0 0
.6716793 0 0
.7011804 0 .00467554
.7306301 0 .01446626
.7594665 0 .02578368
.7881553 .01388296 .03677908
.8166687 .02852743 .04685047
.8453255 .04377836 .05533273
.8740298 .05768435 .06290124
.02613028 .0279152 0
.02872393 .02802774 .00007406
.03442117 .02685903 0
.04412871 .0254184 0
.07307134 .01921071 0
.1042895 .00880515 0
.1370837 0 0
.1684768 0 0
.2001215 0 0
.2304608 0 0
.2591225 0 0
.2870605 0 .00046131
.3144251 0 .00044325
.3408196 0 .00036656
.3659138 0 0
.3916203 0 0
.4191888 0 0
.447699 0 0
.4757969 0 0
.503845 0 0
.5322871 0 0
.560946 0 0
.5896494 0 0
.6170829 0 0
.6442782 .00142347 0
.6716949 .01650745 0
.7012096 .02163497 .00453015
.7307475 .02877549 .01496913
.7595928 .04215529 .02620699
.7882905 .05452026 .03734829
.8167951 .06562964 .04735945
.8454713 .07593787 .05575138
.8741534 .08597334 .06325287
.0341404 .03206824 .00382614
.03915977 .03290981 .00183376
.04466896 .03434229 0
.05908195 .03450485 0
.08743726 .03003976 0
.1129565 .02629613 0
.142615 .01791388 0
.1713713 .01283807 0
.202244 .00882089 0
.2310884 .004565 0
.2591169 .00080021 0
.2868625 .00078782 0
.3134544 .00830382 0
.3394007 .01915706 0
.3648112 .02959612 0
.3913922 .03453929 0
.4196386 .03659022 0
.448283 .03741098 0
.4764342 .03679891 0
.5043854 .0367519 0
.5326594 .03221339 0
.561306 .02792573 0
.5894566 .02715209 0
.6171913 .03607979 0
.6444338 .04820021 0
.6717339 .06106069 0
.7012445 .06547774 .00509214
.7308699 .06980043 .01545191
.7597273 .07833528 .02668105
.7884388 .08663096 .03799047
.8169366 .09462223 .04792969
.8456275 .1025416 .05620589
.8742929 .1105467 .0636504
.02419608 .06994165 0
.02879366 .07094581 0
.0427823 .07086765 0
.06792233 .06915586 0
.09305971 .06683756 0
.1183987 .0637246 0
.1445264 .0624237 0
.1749907 .06057876 0
.2026464 .06086672 0
.2312971 .06167764 0
.2583709 .06238975 0
.2857068 .06494947 0
.3131607 .06751178 0
.339526 .07158723 0
.3652742 .07640197 0
.3921943 .07936766 0
.4204922 .08085299 0
.449205 .08157451 0
.4771812 .08315509 0
.5051251 .0846482 0
.5331903 .08452635 0
.5616344 .08414952 0
.5895122 .08329824 0
.6172959 .0873962 0
.6445665 .09403948 0
.6718966 .1023841 0
.7013088 .1055847 .00584494
.730931 .1085105 .01620493
.7599201 .1138743 .02736113
.7886513 .1199444 .03891188
.8171385 .1260006 .04873198
.8458368 .1324025 .0568264
.8744932 .1387538 .06421749
0 .1123931 0
.01835982 .1118337 0
.04116162 .1111922 0
.06750692 .1102034 0
.09375622 .1085152 0
.121389 .1082028 0
.1492908 .1089287 0
.1753613 .1118488 0
.2030834 .112888 0
.2318325 .1132245 0
.2584902 .113837 0
.2869511 .1135363 0
.3140948 .115352 0
.3399569 .1181562 0
.366067 .1198297 0
.3929148 .1220109 0
.4210851 .1232609 0
.4497998 .1240507 0
.4777325 .1253089 0
.5055073 .1267924 0
.5334034 .1277268 0
.5617782 .1275226 0
.5893151 .1299707 0
.6170591 .1323786 0
.6448426 .1353604 0
.6720968 .1415164 0
.7013953 .1437917 .006856
.7310128 .1459729 .01721553
.760179 .1493965 .02827457
.7889186 .1541382 .04003819
.817436 .1591479 .04954708
.846118 .1642525 .0576453
.8747623 .1693882 .06497189
0 .1531323 0
.01392242 .1526638 0
.0387119 .1524407 0
.06625054 .1524074 0
.09330685 .1527865 0
.1220935 .1531591 0
.1499296 .1541103 0
.1774895 .1553377 0
.2054585 .1565209 0
.2322118 .1579082 0
.2591019 .1577599 0
.2877512 .1563973 0
.3146197 .1565244 0
.3402895 .158328 0
.3668005 .1595515 0
.3932849 .1615356 0
.4212619 .1634502 0
.4498768 .16414 0
.4778056 .1649194 0
.5055899 .1660123 0
.5334312 .1671548 0
.5617513 .1683725 0
.5889866 .1709007 0
.6166947 .173567 0
.644934 .1767905 0
.6724221 .180551 0
.7015029 .1811581 .00818401
.7311172 .1828374 .01850549
.7604836 .1850593 .02938396
.7891811 .1890289 .04107255
.8178156 .1931005 .05057237
.8464805 .1972751 .05857096
.8751051 .201519 .06592504
0 .1935955 0
.01489845 .1935582 0
.04071637 .1935159 0
.06886294 .1934302 0
.09726719 .1931673 0
.1244894 .1932376 0
.1513209 .193681 0
.1782844 .1944307 0
.206258 .1951413 0
.233294 .1957521 0
.2593056 .1962265 0
.2865344 .1954877 0
.3140647 .1952583 0
.3404068 .1961559 0
.3670064 .1971856 0
.3936465 .1988869 0
.4216534 .2007206 0
.4499609 .2025064 0
.4779029 .2035557 0
.5056562 .2045977 0
.5334697 .2060022 0
.5611709 .2075445 0
.5886663 .2098644 0
.6165952 .2120361 0
.6451278 .2145871 0
.6731836 .2171682 0
.7013574 .2208669 0
.7310526 .2206914 .01550961
.760636 .221292 .0307741
.7895043 .2241422 .04231832
.8182824 .2275405 .0518144
.8469267 .2310309 .05969492
.8753613 .2351148 .06811891
.00240701 .2322533 0
.02640612 .2321091 0
.05026221 .2319986 0
.07651689 .231781 0
.1021939 .2318282 0
.1280029 .231982 0
.1540715 .2321949 0
.181417 .2325498 0
.2090754 .2328857 0
.2353573 .2331591 0
.2615378 .2338514 0
.2866911 .2351591 0
.3139968 .2350783 0
.340571 .2351256 0
.3670069 .2357069 0
.3942004 .2365457 0
.4221357 .2379438 0
.4503903 .239203 0
.4782245 .2406498 0
.5056853 .242465 0
.533583 .2441879 0
.5608528 .2457766 0
.5885068 .2478266 0
.6167217 .2496248 0
.6452928 .2517808 0
.6735531 .2538078 0
.7016919 .2569516 .00333426
.7309062 .2581964 .01394998
.7603909 .2598095 .02130118
.7898521 .2602816 .03907854
.8188104 .2624845 .0531363
.8473154 .2659404 .06112438
.8756227 .2694884 .07071369
.01143041 .2706631 0
.03344561 .2705862 0
.05550886 .2706309 0
.07941628 .2706959 0
.1047278 .2707944 0
.1309057 .2707704 0
.1582119 .2706899 0
.1856446 .2709298 0
.2117493 .2712824 0
.2367028 .2717515 0
.2619562 .2723545 0
.2878891 .2730571 0
.3151978 .2737203 0
.3416376 .2743489 0
.367575 .2747562 0
.3953382 .2752319 0
.4229382 .2764163 0
.4511353 .2775344 0
.4790326 .2788778 0
.5063599 .2807961 0
.533713 .2821751 0
.5611736 .2831096 0
.5890983 .2848685 0
.617035 .2866638 0
.6454359 .2885069 0
.6740565 .2901972 0
.7027117 .2919039 .00647775
.7308007 .2944753 .01568042
.7603301 .2955103 .02643319
.7899454 .2969285 .03673926
.8189757 .2998999 .04401938
.847488 .3021959 .05951884
.8759288 .3042551 .07372963
.01965559 .3093445 0
.0421726 .3093548 0
.0633446 .3093663 0
.08665711 .3093839 0
.1108181 .3094269 0
.1361727 .3094716 0
.1620066 .3095888 0
.1882049 .3097501 0
.2130803 .3100071 0
.2384262 .310197 0
.2638242 .3105694 0
.2894431 .3109771 0
.314968 .3114509 0
.3423072 .3122254 0
.36948 .3132264 0
.3968847 .3136498 0
.424159 .3148171 0
.4519722 .3160502 0
.4798192 .3173616 0
.5076798 .3187801 0
.534623 .3195954 0
.5619961 .3202677 0
.5898016 .3215207 0
.6176154 .3231393 0
.6459693 .3246643 0
.6748497 .3260048 0
.7033784 .3277903 .00507955
.7312794 .3306122 .01404046
.7602949 .3320697 .02538989
.7897976 .3334116 .03817197
.8191587 .3347672 .05132499
.847707 .3375805 .06354898
.8760341 .3404859 .07188382
.02947117 .3477867 0
.05057945 .347829 0
.06978796 .3478678 0
.09167773 .3479235 0
.1153374 .3479885 0
.1399435 .3480495 0
.1646487 .3481016 0
.1897888 .3481877 0
.215302 .3482909 0
.2408266 .3484212 0
.2661234 .348592 0
.2916153 .3487835 0
.3164107 .3489168 0
.3420746 .3495752 0
.3701508 .3505534 0
.3987343 .3518827 0
.4251599 .3531756 0
.4531525 .3541209 0
.4812243 .3551194 0
.5087475 .3555298 0
.5361512 .3559651 0
.5634304 .3565559 0
.5910268 .3574251 0
.6185716 .3592644 0
.6468903 .3606625 0
.6755191 .3623691 0
.7040958 .3640037 .00681202
.7323157 .3657972 .0184547
.7602562 .368349 .02912091
.7895501 .3695953 .04314912
.8188934 .3708312 .05583788
.8479956 .3723428 .06729168
.8764992 .3747604 .07683774
.06149551 .3841912 0
.07446324 .3844442 0
.08723002 .3847303 0
.1031739 .3851338 0
.1216006 .3856692 0
.1436303 .3860155 0
.167617 .3860918 0
.1919616 .385941 0
.2167359 .3857556 0
.2422174 .3857837 0
.2681262 .3859296 0
.2946097 .3861146 0
.3200994 .3863927 0
.3450108 .3870896 0
.3715567 .3878164 0
.3996152 .3884788 0
.4277198 .3898283 0
.4554886 .3912772 0
.4822395 .3920205 0
.5097802 .3924153 0
.5376287 .3924673 0
.5648008 .392999 0
.592131 .3938711 0
.619929 .3947983 0
.6480734 .3961765 0
.6763794 .3978771 .01021647
.7046953 .3996937 .02076683
.7331417 .4013861 .0315633
.7610044 .4038318 .04100651
.7895648 .4053124 .05289558
.8188281 .4065459 .06310099
.8480111 .4078308 .07258747
.8766515 .4103806 .08575992
.06888573 .4205296 0
.08313253 .4206014 0
.09708969 .420687 0
.114429 .4208095 0
.1343955 .4209741 0
.1562233 .421184 0
.1794406 .4214231 0
.1994676 .4222268 0
.2221566 .4231059 0
.2475629 .4232821 0
.2730328 .4234577 0
.29875 .4236426 0
.3243998 .4235393 0
.3494952 .4241569 0
.3750002 .4248188 0
.4015509 .4255285 0
.4293106 .4263123 0
.4563845 .4272418 0
.4846011 .4283925 .00001328
.5117254 .4287175 0
.5389258 .4289558 0
.565881 .4293461 .00047635
.5931229 .4301159 .00225247
.6211769 .4308634 .00667059
.6495047 .4313553 .01500584
.6776341 .4327312 .02371094
.7061423 .4343712 .03355296
.7345588 .4361663 .0436764
.7626475 .4381175 .05468141
.7902194 .4407271 .06355539
.8189466 .4420265 .07293277
.8480437 .4434692 .08249896
.8767688 .4461765 .09974229
.07917934 .4576944 0
.09211122 .4577581 0
.1050485 .4578303 0
.1213788 .4579338 0
.1404411 .4580729 0
.1615061 .4582502 0
.1840221 .4584682 0
.2077819 .4586772 0
.232296 .4589204 0
.2574164 .4592652 0
.2799518 .4599944 0
.3042169 .4602939 0
.3295247 .4605833 0
.3542446 .4611507 0
.3792103 .4617737 0
.4038462 .4620749 .0039022
.4313376 .4621981 .00828537
.4590529 .462674 .01331439
.4863777 .4635681 .01732031
.5139308 .4647394 .01922576
.541275 .4653018 .01718302
.5680641 .4655724 .01750802
.5950192 .4661878 .0184888
.6228483 .4668976 .02238807
.6508433 .4671072 .02938787
.6793033 .4676558 .03763242
.7076961 .4691362 .04768322
.7362061 .4708439 .05544564
.7642749 .4727223 .06472652
.7922281 .4746927 .07398769
.8195692 .4773179 .08211691
.8481231 .4798233 .09733623
.8764369 .4823744 .11209
.08506655 .4951124 .00164018
.09727737 .4951491 .00165871
.1096202 .4951907 .00168111
.1253363 .4952501 .00171333
.1439412 .4953101 .00189577
.1646604 .4953782 .00218925
.1869293 .4955109 .00153713
.2103159 .4956849 .00044319
.2345214 .4958888 0
.2593397 .4961241 0
.2846234 .4963919 0
.3102361 .496659 0
.334648 .4972623 0
.358818 .4976917 .0019524
.3836508 .4977236 .00538511
.4088098 .4979821 .00849455
.4342259 .4982793 .01178236
.460613 .4986695 .01444413
.4878723 .4989198 .03236533
.5156927 .4999199 .0360984
.5430394 .5010864 .03916794
.569981 .5022159 .0395216
.5976449 .5023619 .03976659
.6254254 .5031215 .0426541
.6529272 .5038285 .0440788
.6813663 .5034745 .05227477
.7094377 .5045894 .06112478
.737717 .5061103 .06837249
.7659787 .5077543 .07549319
.7937865 .5097716 .08544686
.8211974 .5124222 .09629143
.8479689 .5152205 .109787
.8760358 .5174547 .1204154
.09722745 .5322912 .01850228
.1076844 .5323462 .01861134
.118485 .5324086 .01873403
.1324999 .532498 .01890918
.149789 .532577 .01914868
.1693201 .5326709 .01945493
.1904882 .5327864 .01983131
.2128848 .5329248 .02028249
.2362068 .5330871 .02081294
.2602322 .5332745 .0214229
.2851017 .5335068 .02113445
.3103217 .5336792 .02081718
.3360564 .5337633 .02102255
.3620434 .5339217 .02159006
.3879415 .5341462 .02361511
.4136668 .5342278 .02597251
.4384914 .5344949 .02907237
.4637653 .5348601 .03340693
.4903978 .5356157 .03984658
.5170029 .5364575 .04540388
.5440673 .5371917 .05476815
.5720922 .5381284 .05996367
.6001887 .5392478 .06379251
.6277258 .5399215 .06327479
.6555408 .5403004 .06241919
.682974 .5407414 .06462961
.7111893 .5408564 .0739956
.7390132 .5422424 .08266339
.7669243 .543774 .09115628
.7944659 .5455522 .1000519
.8214287 .5475697 .1094325
.8482208 .550419 .1187556
.8754727 .552688 .1294099
.1070469 .5696432 .03764787
.1168176 .5696679 .03770274
.1270105 .5696958 .03776599
.1403649 .5697358 .03785748
.1565451 .5697887 .0380192
.174976 .5698556 .03824624
.1951417 .5699689 .03861424
.2166775 .57006 .03990217
.2399386 .5701183 .04105768
.2639983 .5701748 .04350975
.2886958 .5702404 .04607202
.3140025 .5703184 .04850686
.3391815 .570582 .05137222
.3644368 .5708584 .05426491
.3898601 .5709676 .05691895
.4150963 .5711108 .05763635
.4413882 .5710808 .05587635
.4675776 .5711086 .05643461
.4931674 .571854 .06037322
.519347 .5726652 .0663524
.5466354 .5735831 .07190504
.574534 .5745875 .07540018
.6025373 .5755969 .07992554
.6296216 .5766422 .08432075
.65661 .5773946 .08634745
.6838027 .5778651 .08600571
.7119309 .5777969 .09141812
.7396345 .5786944 .09911057
.7670666 .5799955 .1025285
.7948564 .5815996 .1094222
.82199 .5836496 .1195649
.848974 .5858124 .1289144
.8753455 .588472 .1370868
.1142149 .6069956 .06017017
.1236246 .6070002 .06050453
.1334992 .6070056 .06088145
.146508 .6070134 .06141879
.1623158 .6070237 .06213654
.1803994 .6070369 .06304147
.2002771 .607053 .0641424
.2216786 .6070741 .06529751
.2445183 .6070684 .06654102
.2686565 .6070022 .06796295
.2933919 .6069266 .0695568
.3185959 .6068416 .07131728
.3433051 .6070912 .07366452
.368262 .6074141 .07624764
.3934686 .6077685 .07890526
.4184309 .6080706 .08048529
.4431103 .6081841 .08200832
.4687307 .6084105 .08262617
.494912 .6086994 .08438092
.5227225 .6093769 .08754199
.5504382 .6101968 .09031843
.5777947 .6110656 .09467234
.6044794 .6120654 .09898826
.6311408 .6131234 .1020766
.6581494 .6140571 .1039072
.6850614 .614903 .1067987
.7118602 .6148665 .105612
.7398071 .6149287 .1076553
.7677146 .616264 .113494
.7952647 .6179975 .1208271
.8229311 .6198681 .1277425
.8505728 .6219313 .1337364
.8782688 .6237234 .1386791
.12103 .6447236 .08352255
.1302744 .6447093 .08379164
.1400126 .6446933 .08409604
.1528898 .6446702 .08453035
.1685987 .6446396 .08511048
.1866257 .6446018 .08583171
.2064869 .6445592 .08667801
.2277977 .6445084 .08768233
.2500446 .6444767 .08880023
.272854 .6444935 .08998463
.2970638 .644468 .09143976
.3218884 .6444477 .09298863
.3465144 .6445838 .0946499
.3720313 .6447349 .09630888
.3977989 .6449115 .09799128
.4233639 .6451842 .09947289
.4485943 .6456606 .100642
.4740176 .6461715 .1019021
.5001698 .6464053 .1022724
.5258899 .6471403 .1078336
.5534216 .6474077 .1117338
.5809118 .6479304 .1137745
.6072986 .6488718 .1147254
.633231 .6496582 .1168756
.6590671 .6503597 .1172138
.6858058 .6513902 .1152611
.712822 .6527144 .1161022
.740166 .6531199 .1196198
.7689759 .6534492 .1246804
.7970051 .6548878 .1269205
.8250531 .6564963 .1320508
.8525746 .6572155 .1400876
.8803916 .6586235 .1464195
.1254129 .6829628 .1026185
.1343651 .6829506 .1028377
.1438318 .6829364 .1030846
.1563931 .6829163 .1034376
.1718185 .6828895 .1039028
.1899152 .6828574 .1044326
.2098898 .6828178 .1050824
.2313377 .6827705 .1058542
.2539372 .6827149 .1067543
.2774384 .6826506 .1077851
.3016483 .6825774 .1089476
.3266335 .6825078 .1103287
.3519097 .6825117 .1119142
.3773663 .682528 .1135507
.4026874 .6826348 .1151115
.4281292 .6827921 .1167363
.4539408 .6829751 .1181296
.4800013 .683197 .1185521
.5061036 .683544 .1192779
.5323851 .6841058 .120692
.5590085 .6845592 .1225191
.5825177 .6855979 .1284026
.6095092 .6861995 .1282726
.635965 .6869377 .1273195
.6622685 .6877275 .1248905
.6891498 .6886627 .1229898
.7160458 .6900198 .1236177
.7432228 .6911826 .1255375
.7707656 .6917461 .1302741
.7989789 .69166 .1391615
.8264695 .6925453 .1459883
.8535965 .6938168 .1510635
.8814259 .6948507 .1573081
.1385549 .7209903 .1190705
.1468829 .7209784 .1192317
.1557735 .7209646 .1193703
.1676993 .720944 .1194852
.1824265 .7209169 .1196389
.1995343 .7208819 .1198353
.2185929 .7208388 .120076
.2392204 .7207873 .1203641
.2610861 .7207274 .1207621
.2837995 .7206644 .1216494
.3071001 .7206048 .122579
.3307137 .7206059 .1236376
.3547389 .7206612 .1248583
.3799206 .7206668 .1263177
.4056772 .7206734 .1278785
.4321007 .7207294 .1297602
.4587044 .7207844 .1317967
.485808 .7208806 .134702
.5122337 .7209402 .1358888
.5369872 .7213086 .1369027
.5623865 .7217683 .1384553
.5886047 .7226456 .1380886
.6148635 .7235861 .1357035
.641215 .7243476 .1342362
.66679 .7254508 .1354758
.6919969 .7265216 .1361835
.7188438 .7275468 .1347557
.7455378 .7287475 .1372972
.772079 .729528 .1424312
.799212 .7301786 .1487589
.8271794 .730382 .1574341
.8547264 .7308264 .1649891
.8827557 .7317408 .168403
.1541432 .7587149 .1316698
.1616253 .758737 .1318494
.1695611 .7587352 .1319704
.1802993 .7587326 .1321425
.1936224 .7587324 .1323557
.2092147 .7587344 .1326125
.2269508 .7587268 .1330427
.2465006 .7587058 .1336901
.2678322 .7586983 .134949
.2902434 .7586895 .1364041
.3135295 .7586793 .1380541
.3370309 .7587596 .1399247
.3604694 .7586938 .1406308
.3858187 .758795 .1423524
.4109563 .7588802 .143992
.436102 .758984 .1456707
.4615291 .7590978 .1474707
.4871905 .7592229 .1492418
.5133654 .7593613 .1508047
.5393739 .7595118 .1517136
.5654638 .7596928 .1519698
.5923719 .7601761 .1512465
.6188974 .7607584 .150476
.6445927 .7616548 .1517387
.6700177 .7627857 .1534789
.6955713 .7637639 .1546507
.721447 .76468 .1534941
.7472889 .7657951 .151509
.7730943 .7675642 .1570298
.799484 .7683799 .1601777
.8272793 .7686363 .1662214
.8560063 .7687593 .1757725
.8842441 .7688444 .1824666
.1837683 .7962278 .1559028
.1896471 .7962353 .1559851
.1960692 .7962439 .1560779
.2048957 .7962564 .1562108
.2161252 .7962729 .1563895
.2297327 .7962691 .1567229
.2453195 .796264 .1571336
.2625791 .796263 .1576104
.2814051 .7962626 .1581601
.301789 .7962623 .1587728
.3230942 .7962638 .1593287
.3443936 .7964359 .1596791
.3664252 .7966278 .1600689
.3890727 .7968403 .1605007
.4122389 .7970738 .1609732
.4368177 .7972096 .1617406
.4621788 .7972957 .1630867
.4878252 .7973176 .1643638
.5141777 .7973261 .1670721
.5419023 .7974239 .167573
.5696585 .7975495 .1680567
.5958818 .797924 .1694514
.6218634 .7983648 .1714142
.6478586 .7988073 .1735384
.6732493 .7995588 .1747634
.6986709 .8004737 .1764251
.7246643 .8016364 .1774409
.7510391 .8027147 .1780633
.7769729 .8036835 .1790878
.8042901 .8039153 .179891
.8316063 .8039282 .1862674
.8595617 .8040013 .1939661
.8875988 .8044536 .1979036
.19856 .833463 .1783397
.2041665 .8334636 .1784119
.2103595 .8334604 .1785354
.218938 .8334523 .178746
.229898 .8334414 .1790282
.2430741 .8334275 .1793875
.2582429 .8334107 .1798287
.2751577 .8333905 .1803552
.293575 .8333665 .1809714
.3132687 .8333389 .1816797
.3336725 .8334033 .1824521
.3544585 .8335319 .1830748
.3760353 .8336753 .1837675
.3979375 .8338326 .1836349
.4207206 .834002 .1847081
.444421 .8341818 .1853544
.4698422 .8342457 .1858517
.4955709 .8343054 .1864171
.5211791 .8344615 .1870623
.5463738 .8347712 .1880495
.571801 .8350912 .1891352
.5976171 .8354357 .1906103
.6236558 .8358464 .1925329
.6499532 .8362694 .1955913
.6763672 .8366657 .1990882
.7027985 .8370929 .2025822
.7288489 .8376143 .20652
.7545863 .8382959 .2090819
.7802508 .8392628 .211056
.806942 .839528 .2121316
.835122 .8391949 .210604
.8628688 .8396297 .2108234
.8897219 .8404365 .2133564
.2216835 .8702644 .2029887
.2267438 .8702544 .203121
.2323206 .8702432 .2032703
.2400343 .870227 .2034858
.2499576 .8702053 .2037762
.2619911 .8701757 .2041523
.2759538 .8701275 .2046553
.2911471 .870069 .2044649
.3086596 .8700174 .2050774
.3278688 .8699722 .2054482
.3475229 .8700656 .2056857
.3680491 .8701811 .2059807
.3892657 .8702617 .2061406
.4112046 .8703555 .2063041
.4337564 .870494 .2064881
.4562761 .8707323 .2069661
.478763 .8710603 .2076708
.5026022 .8713045 .2086898
.5269036 .8715326 .2101367
.5518614 .8717303 .2120932
.5768469 .8719058 .2144417
.6022375 .8721848 .2163805
.627775 .8725306 .2191926
.6531152 .872839 .2221105
.6785262 .8732039 .2249097
.7044627 .8735576 .2280582
.7306011 .8739368 .2313327
.7565976 .8743918 .2342456
.7826397 .874835 .236665
.8098799 .8749571 .2366426
.8372331 .8750732 .2344688
.8638585 .8755159 .2314443
.8911072 .8763239 .2301766
.2449353 .9077025 .2280354
.2497231 .9076811 .2281841
.2549894 .907657 .228346
.2622852 .9076226 .2285671
.271728 .9075765 .2288635
.2832457 .9075177 .2292412
.2966847 .9074529 .2296834
.3118871 .9073774 .2302063
.3298748 .9071805 .2298752
.3475085 .9071926 .2301438
.3651824 .9073636 .2306766
.3837814 .9075449 .2316009
.4030449 .9076808 .232639
.4230983 .9078192 .2337397
.4438873 .9079703 .2349576
.4656157 .9081814 .2360926
.4879746 .908457 .2371566
.5106703 .9087033 .238463
.5346161 .9088593 .2402962
.5589727 .9090284 .2421237
.5835525 .909217 .2437392
.6083457 .9094177 .2454107
.6331325 .9096062 .2465278
.6581104 .9098279 .2470218
.6829664 .9100463 .2479601
.7075646 .9102933 .249476
.7323641 .9105363 .2513644
.7574931 .9108704 .2539652
.7836668 .911038 .256541
.8107349 .9110106 .2564006
.8380774 .9112864 .2553528
.8655348 .9116966 .2543732
.8931648 .9122364 .2529609
.2706868 .9455882 .2589441
.2747321 .9455692 .2591947
.2792263 .9455476 .2594783
.2855265 .9455168 .2598839
.2937382 .9454754 .2604278
.3038355 .9454225 .2611194
.3157384 .9453574 .2619676
.3293269 .9452794 .2629797
.3444605 .945188 .2641604
.3607644 .9451894 .2651861
.3779794 .9452444 .2661057
.3962786 .945306 .2671324
.4158266 .9453346 .2679411
.4364613 .9453767 .2679461
.4569767 .9455835 .2688158
.4781445 .9458106 .2695482
.4998 .9460453 .2700127
.5217996 .9462429 .2704181
.5441933 .9464211 .2707387
.5679033 .9465225 .2713841
.5917868 .946591 .272088
.6158805 .9466442 .2730215
.640348 .9466633 .2742873
.6650324 .9467594 .2756541
.6896307 .9469232 .2771828
.7143036 .9470977 .2789807
.7400498 .9469891 .2801072
.766138 .9468066 .2803449
.7912964 .9471101 .2797794
.8167199 .9475163 .279424
.8423965 .9480109 .2791269
.8694061 .9483065 .2797761
.8970015 .948346 .2834937
.3035426 .9820068 .2965586
.3068521 .9819931 .2967127
.3105474 .9819773 .2968866
.3157565 .9819545 .2971364
.3225938 .9819242 .2974711
.3310727 .9818854 .2978979
.3411584 .9818377 .2984215
.3527877 .9817804 .2990474
.3658274 .9817351 .2997195
